!!!!SEGMENT: pl-wnifc--6770-n_braun-jan--potpourri-z-piesni-polskich.krn
!!!cenid: 18xx:4045
!!!COM: Braun, Jan
!!!COM-rismID: pe50048140
!!!CDT:
!!!CNT:
!!!OTL: Potpourri z pieśni polskich
!!!PDT:
!!!AGN:
!!!SMS-siglum: PL-Wnifc
!!!SMS-shelfmark: 6770/n
!!!SMS-shelfwork: W
!!!SMS-variant:
!!!SMS-altvar:
!!!NIFC-rismSourceID: 1001158156
!!!NIFC-islandoraID:
!!!URL-pdf-islandora:
!!!URL-scan:
!!!ONB-nifc: UWAGA: całość źródła w jednym pliku, bez podziału na części
!!!OMD: Maestoso.
!!!AIN: 1 zithr
!!!key:
**kern	**fing	**kern	**fing	**dynam
*part1	*part1	*part1	*part1	*part1
*staff2	*staff2	*staff1	*staff1	*
*>[A,B,B1,B,B2,C,D,D,E,F,F1,F,F2,G,H,H,I,I,J,K,K1,K,K2,L]	*	*>[A,B,B1,B,B2,C,D,D,E,F,F1,F,F2,G,H,H,I,I,J,K,K1,K,K2,L]	*	*
*>A	*	*>A	*	*
*I"Cytra.	*	*I"Cytra.	*	*
*I'	*	*I'	*	*
*Izithr	*	*Izithr	*	*
*ICstr	*	*ICstr	*	*
*clefF4	*	*clefG2	*	*
*kcancel	*	*kcancel	*	*
*k[b-]	*	*k[b-]	*	*
*G:	*	*G:	*	*
*M4/4	*	*M4/4	*	*
*met(c)	*	*met(c)	*	*
=1	=1	=1	=1	=1
2d 2A 2DD\	.	2dd 2a 2f/	.	f
4g 4d 4GG\	.	4dd 4b- 4g\	.	.
4e 4c#X 4A 4AA\	.	4ee 4cc#X 4a\	.	.
=2	=2	=2	=2	=2
2d 2A 2DD\	.	2ff 2dd 2a\	.	.
2e 2c#X 2A 2AA\	.	2ee 2cc#X 2a\	.	.
=3	=3	=3	=3	=3
4e\	.	4.gg 4.dd 4.b-^\	.	p
4d\	.	.	.	.
.	.	8ff 8dd 8b-\	.	.
4c#X\	.	4ee 4cc#X 4a\	.	.
4A\	.	4aa 4cc# 4a\	.	.
=4	=4	=4	=4	=4
4e\	.	4.gg 4.dd 4.b-^\	.	.
4d\	.	.	.	.
.	.	8ff 8dd 8b-\	.	.
4c#X\	.	4ee 4cc#X 4a\	.	.
4A\	.	4a/ 4a	.	.
=5	=5	=5	=5	=5
2d 2A 2DD\	.	2dd 2a 2f/	.	f
2d 2A 2DD\	.	2dd 2a 2f#X/	.	.
=6	=6	=6	=6	=6
2g 2d 2GG\	.	2dd 2b- 2g\	.	.
4BB-/	.	4dd 4b- 4g\	.	.
4GG/	.	4ee 4b- 4g\	.	.
!!LO:LB:g=original
=7	=7	=7	=7	=7
2f: 2d: 2A: 2AA:\	.	(4ff 4dd 4a\	.	.
.	.	8qaa/)	.	.
.	.	4aa\	.	.
2e 2c#X 2A 2AA\	.	(4ee 4cc#X 4a\	.	.
.	.	8qaa/)	.	.
.	.	4aa\	.	.
=8	=8	=8	=8	=8
*^	*	*	*	*
2.d 2.A/	4DD/	.	2.dd 2.a 2.f/	.	>
.	8AA/L	.	.	.	.
.	8FF/J	.	.	.	.
.	4DD/	.	.	.	.
4rc	4rAA	.	8r	.	.
!	!	!	!LO:TUP:b:problem=klamra łukowa	!	!
.	.	.	24a/LL	.	]
.	.	.	24g#X/	.	.
.	.	.	24a/JJ	.	.
*v	*v	*	*	*	*
=9	=9	=9	=9	=9
2g 2e\	.	2b-\	.	p
2g 2d\	.	2b-\	.	.
=10	=10	=10	=10	=10
2g 2c#X\	.	4b-\	.	.
.	.	2a^>/	.	.
2A\	.	.	.	.
.	.	4g/	.	.
=11	=11	=11	=11	=11
2f 2d 2A\	.	2f/	.	.
2f 2d 2B- 2G#X\	4	4.f^>/	.	.
.	.	8e/	.	.
=12	=12	=12	=12	=12
*	*	*^	*	*
2e 2c#X 2A\	.	2.e/	4r	.	.
.	.	.	4A\	.	.
4AA/	.	.	2ryy	.	.
4AA/	.	4r	.	.	.
*	*	*v	*v	*	*
=13	=13	=13	=13	=13
2AA 2AAA/	.	2r	.	.
2r	.	4r	.	.
.	.	4a/	.	.
!!LO:LB:g=original
=14||	=14||	=14||	=14||	=14||
*k[f#c#]	*	*k[f#c#]	*	*
*M3/4	*	*M3/4	*	*
!	!	!LO:TX:a:t=(Polonez z op. „Hrabina.”)	!	!
8AA\L	.	8bL 8g/	.	p
8A\	.	8bJ 8g/	.	.
8g 8c#\	.	4.b 4.g/	.	.
8A\	.	.	.	.
8g 8c#\	.	.	.	.
8A\J	.	8cc# 8g/	.	.
=15	=15	=15	=15	=15
8AA\L	.	8.eeL 8.a 8.f#\	.	.
8A\	.	.	.	.
.	.	16dd\Jk	.	.
8f# 8d\	.	4.dd 4.a 4.f#/	.	.
8A\	.	.	.	.
8f# 8d\	.	.	.	.
8A\J	.	8dd\	.	.
=16	=16	=16	=16	=16
8AA\L	.	8ddL 8g\	.	.
!	!	!LO:TX:a:t=P:problem=slur with a dot	!	!
8A\	.	(16cc#\L	.	.
.	.	16b\JJ)	.	.
8g 8c#\	.	4.cc# 4.g/	.	.
8A\J	.	.	.	.
8AA\L	.	.	.	.
8f#J 8d 8A\	.	(8dd\	.	.
.	.	8qff#/)	.	.
=17	=17	=17	=17	=17
8AA\L	.	8.ff#L 8.cc# 8.a\	.	.
8A\	.	.	.	.
.	.	16eeJk 16cc# 16a\	.	.
8g 8c#\	.	4.ee 4.cc# 4.a\	.	.
8A\	.	.	.	.
8g 8c#\	.	.	.	.
8A\J	.	8a/	.	.
=18	=18	=18	=18	=18
!LO:TX:t=P:problem=mixed beam	!	!	!	!
8DD/L	.	8.ff#L 8.dd 8.a^\	.	f
8A\	.	.	.	.
.	.	16ee\Jk	.	.
8f# 8d\	.	8dd\L	.	.
8A\	.	8cc#\	.	.
8f# 8d\	.	8b\	.	.
8A\J	.	8a\J	.	.
=19	=19	=19	=19	=19
!LO:TX:t=P:problem=mixed beam	!	!	!	!
8GG/L	.	8.cc#L 8.a/	.	.
8B\	.	.	.	.
.	.	16bJk 16g/	.	.
8g 8e\	.	4b 4g/	.	.
8B\	.	.	.	.
8g 8e\	.	8r	.	.
8B\J	.	8b 8g/	.	.
!!LO:LB:g=original
=20	=20	=20	=20	=20
8AA\L	.	8.aL 8.g/	.	<
8A\	.	.	.	.
.	.	16b/Jk	.	.
8g 8c#\	.	8cc#\L	.	[
8A\	.	8dd\J	.	.
8g 8c#\	.	(8eeL 8g\	.	.
.	.	8qgg/)	.	.
8A\J	.	8ggJ 8b\	.	.
=21	=21	=21	=21	=21
!LO:TX:t=P:problem=mixed beam	!	!	!	!
8DD/L	.	8.ggL 8.dd 8.b\	.	.
8A\	.	.	.	.
.	.	16ff#Jk 16dd 16a\	.	.
8f# 8d\	.	4.ff# 4.dd 4.a\	.	.
8A\	.	.	.	.
8f# 8d\	.	.	.	.
8A\J	.	8a/	.	.
=22	=22	=22	=22	=22
!LO:TX:t=P:problem=mixed beam	!	!	!	!
8DD/L	.	8.ff#L 8.dd 8.a\	.	.
8A\	.	.	.	.
.	.	16ee\Jk	.	.
8f# 8d\	.	8dd\L	.	.
8A\	.	8cc#\	.	.
8f# 8d\	.	8b\	.	.
8A\J	.	8a\J	.	.
=23	=23	=23	=23	=23
!LO:TX:t=P:problem=mixed beam	!	!	!	!
8GG/L	.	8.cc#L 8.a/	.	.
8B\	.	.	.	.
.	.	16bJk 16g/	.	.
8g 8e\	.	4.b 4.g/	.	.
8B\	.	.	.	.
8g 8e\	.	.	.	.
8B\J	.	8b 8g/	.	.
=24	=24	=24	=24	=24
8AA\L	.	8.aL 8.g/	.	.
8A\	.	.	.	.
.	.	16b/Jk	.	.
8g 8c#\	.	8cc#\L	.	.
8A\	.	(8dd\J	.	.
.	.	8qff#/)	.	.
8g 8c#\	.	8.ff#L 8.a\	.	.
8A\J	.	.	.	.
.	.	16eeJk 16g\	.	.
=25	=25	=25	=25	=25
8AA\L	.	4ee 4a 4g\	.	>
8A\J	.	.	.	.
4d 4A 4DD\	.	4dd 4a 4f#/	.	.
4r	.	8r	.	]
.	.	8d/	.	.
!!LO:LB:g=original
=26!|:	=26!|:	=26!|:	=26!|:	=26!|:
*>B	*	*>B	*	*
*k[b-e-]	*	*k[b-e-]	*	*
*M2/4	*	*M2/4	*	*
!	!	!LO:TX:a:t=Moderato. (Moniuszko Flisacy.)	!	!
4GG/	.	8.g/L	.	mf
.	.	16a/Jk	.	.
4g 4d 4B-\	.	8.b-\L	.	.
.	.	16cc\Jk	.	.
=27	=27	=27	=27	=27
4GG/	.	8ddL 8b- 8g\	.	.
.	.	8ddJ 8b- 8g\	.	.
4g 4d 4B-\	.	8r	.	.
.	.	8dd\	.	.
=28	=28	=28	=28	=28
4C/	.	8ee-\L	.	.
.	.	8ff\J	.	.
4g 4e- 4c\	.	8.gg\L	.	.
.	.	16ee-\Jk	.	.
=29	=29	=29	=29	=29
4BB-/	.	8gg\L	.	.
.	.	8dd\J	.	.
4g 4d 4B-\	.	4r	.	.
=30	=30	=30	=30	=30
4AA/	.	8.dd\L	.	.
.	.	16ee-\Jk	.	.
4DD/	.	8.dd\L	.	.
.	.	16a\Jk	.	.
=31	=31	=31	=31	=31
4GG/	.	8ee-\L	.	.
.	.	8dd\J	.	.
4g 4d 4B-\	.	4r	.	.
=32	=32	=32	=32	=32
4DD/	.	8cc\L	.	.
.	.	8cc\J	.	.
4f#X 4c\	.	8.b-/L	.	.
.	.	16a/Jk	.	.
=33	=33	=33	=33	=33
!LO:TX:t=1.	!	!	!	!
*>B1	*	*>B1	*	*
4DD/	.	4a/	.	.
4f#X 4c\	.	4d/	.	.
=34:|!	=34:|!	=34:|!	=34:|!	=34:|!
!LO:TX:t=2.	!	!	!	!
*>B2	*	*>B2	*	*
!LO:TX:t=P:problem=mixed beam	!	!	!	!
8DD/L	.	4a 4c/	.	.
8d\J	.	.	.	.
8GG/	.	8g 8B-/	.	.
8r	.	8r	.	.
!!LO:PB:g=original
=35||	=35||	=35||	=35||	=35||
*>C	*	*>C	*	*
*k[f#]	*	*k[f#]	*	*
8AA\L	.	8.a\L	.	f
8f#J 8c\	.	.	.	.
.	.	16cc\Jk	.	.
!LO:TX:t=P:problem=mixed beam	!	!	!	!
8DD/L	.	8ee\L	.	.
8f#J 8d 8A\	.	8ee\J	.	.
=36	=36	=36	=36	=36
!LO:TX:t=P:problem=mixed beam	!	!	!	!
8GG/L	.	4dd\	.	.
8gJ 8d 8B\	.	.	.	.
!LO:TX:t=P:problem=mixed beam	!	!	!	!
8DD/L	.	8r	.	.
!	!	!LO:TX:a:t=P:problem=slur with a dot	!	!
8gJ 8d 8B\	.	(16cc\LL	.	.
.	.	16b\JJ)	.	.
=37	=37	=37	=37	=37
8AA\L	.	8.a\L	.	.
8f#J 8c\	.	.	.	.
.	.	16cc\Jk	.	.
!LO:TX:t=P:problem=mixed beam	!	!	!	!
8DD/L	.	8ee\L	.	.
8f#J 8d 8A\	.	8ee\J	.	.
=38	=38	=38	=38	=38
!LO:TX:t=P:problem=mixed beam	!	!	!	!
8GG/L	.	4.dd\	.	.
8gJ 8d 8B\	.	.	.	.
!LO:TX:t=P:problem=mixed beam	!	!	!	!
8DD/L	.	.	.	.
!	!	!LO:TX:a:t=P:problem=slur with a dot	!	!
8gJ 8d 8B\	.	(16cc\LL	.	.
.	.	16b\JJ)	.	.
=39	=39	=39	=39	=39
8C\L	.	8.cc\L	.	.
8gJ 8e 8c\	.	.	.	.
.	.	16ee\Jk	.	.
8C\L	.	8gg\L	.	.
8gJ 8e 8c\	.	8gg\J	.	.
=40	=40	=40	=40	=40
!LO:TX:t=P:problem=mixed beam	!	!	!	!
8DD/L	.	4.gg\	.	.
8gJ 8d 8B\	.	.	.	.
!LO:TX:t=P:problem=mixed beam	!	!	!	!
8DD/L	.	.	.	.
!	!	!LO:TX:a:t=P:problem=slur with a dot	!	!
8gJ 8d 8B\	.	(16ff#\LL	.	.
.	.	16ee\JJ)	.	.
=41	=41	=41	=41	=41
8AA\L	.	8dd\L	.	.
8f#J 8d 8A\	.	8a\J	.	.
!LO:TX:t=P:problem=mixed beam	!	!	!	!
8DD/L	.	8dd\L	.	.
8f#J 8d 8A\	.	8ee\J	.	.
=42	=42	=42	=42	=42
!LO:TX:t=P:problem=mixed beam	!	!	!	!
8GG/L	.	4.dd\	.	.
8g 8d 8B\	.	.	.	.
8g 8d 8B\	.	.	.	.
!	!	!LO:TX:a:t=P:problem=slur with a dot	!	!
8gJ 8d 8B\	.	(16cc\LL	.	.
.	.	16b\JJ)	.	.
!!LO:LB:g=original
=43	=43	=43	=43	=43
8AA\L	.	8.a\L	.	.
8f#J 8c\	.	.	.	.
.	.	16cc\Jk	.	.
!LO:TX:t=P:problem=mixed beam	!	!	!	!
8DD/L	.	8ee\L	.	.
8f#J 8d 8A\	.	8ee\J	.	.
=44	=44	=44	=44	=44
!LO:TX:t=P:problem=mixed beam	!	!	!	!
8GG/L	.	4dd\	.	.
8gJ 8d 8B\	.	.	.	.
!LO:TX:t=P:problem=mixed beam	!	!	!	!
8DD/L	.	8r	.	.
!	!	!LO:TX:a:t=P:problem=slur with a dot	!	!
8gJ 8d 8B\	.	(16cc\LL	.	.
.	.	16b\JJ)	.	.
=45	=45	=45	=45	=45
8AA\L	.	8.a\L	.	.
8f#J 8c\	.	.	.	.
.	.	16cc\Jk	.	.
!LO:TX:t=P:problem=mixed beam	!	!	!	!
8DD/L	.	8ee\L	.	.
8f#J 8d 8A\	.	8ee\J	.	.
=46	=46	=46	=46	=46
!LO:TX:t=P:problem=mixed beam	!	!	!	!
8GG/L	.	4.dd\	.	.
8gJ 8d 8B\	.	.	.	.
!LO:TX:t=P:problem=mixed beam	!	!	!	!
8DD/L	.	.	.	.
!	!	!LO:TX:a:t=P:problem=slur with a dot	!	!
8gJ 8d 8B\	.	(16cc\LL	.	.
.	.	16b\JJ)	.	.
=47	=47	=47	=47	=47
8C\L	.	8.cc\L	.	.
8gJ 8e 8c\	.	.	.	.
.	.	16ee\Jk	.	.
8C\L	.	8gg\L	.	.
8gJ 8e 8c\	.	8gg\J	.	.
=48	=48	=48	=48	=48
!LO:TX:t=P:problem=mixed beam	!	!	!	!
8DD/L	.	4.gg\	.	.
8gJ 8d 8B\	.	.	.	.
!LO:TX:t=P:problem=mixed beam	!	!	!	!
8DD/L	.	.	.	.
!	!	!LO:TX:a:t=P:problem=slur with a dot	!	!
8gJ 8d 8B\	.	(16ff#\LL	.	.
.	.	16ee\JJ)	.	.
=49	=49	=49	=49	=49
8AA\L	.	8dd\L	.	.
8f#J 8c\	.	8dd\J	.	.
!LO:TX:t=P:problem=mixed beam	!	!	!	!
8DD/L	.	8.cc\L	.	.
8f#J 8d 8A\	.	.	.	.
.	.	16a\Jk	.	.
=50	=50	=50	=50	=50
!LO:TX:t=P:problem=mixed beam	!	!	!	!
8DD/L	.	4a/	.	.
8d\J	.	.	.	.
4GG;/	.	4g;/	.	.
!!LO:LB:g=original
=51||	=51||	=51||	=51||	=51||
*k[]	*	*k[]	*	*
*M4/4	*	*M4/4	*	*
*met(c)	*	*met(c)	*	*
!	!	!LO:TX:a:t=Andante.	!	!
4C/	.	2ee 2g 2e/	.	mf
4g 4e 4c\	.	.	.	.
4C/	.	4ff 4g 4e\	.	.
4g 4e 4c\	.	4ee 4g 4e/	.	.
=52	=52	=52	=52	=52
4C/	.	2cc 2g 2e/	.	.
4g 4e 4c\	.	.	.	.
4C/	.	2g 2e/	.	.
4g 4e 4c\	.	.	.	.
=53	=53	=53	=53	=53
4C/	.	2cc 2g 2e/	.	.
4g 4e 4c\	.	.	.	.
4C/	.	4dd 4g 4e/	.	.
4g 4e 4c\	.	4ee 4g 4e/	.	.
=54	=54	=54	=54	=54
4BB/	.	2gg 2g 2f\	.	.
4g 4d 4B\	.	.	.	.
4GG/	.	2ff 2g 2f\	.	.
4g 4d 4B\	.	.	.	.
=55	=55	=55	=55	=55
4BB/	.	2ff 2g 2f\	.	.
4g 4d 4B\	.	.	.	.
4GG/	.	4ee 4g 4f\	.	.
4g 4d 4B\	.	4dd 4g 4f\	.	.
=56	=56	=56	=56	=56
4C/	.	2ee 2g 2e/	.	.
4g 4e 4c\	.	.	.	.
4GG/	.	4g 4e/	.	.
4g 4e 4c\	.	4cc 4g 4e/	.	.
=57	=57	=57	=57	=57
4BB/	.	4ee 4g 4f\	.	.
4g 4d 4B\	.	4dd 4g 4f\	.	.
4GG/	.	4a 4f/	.	.
4g 4d 4B\	.	4b 4f/	.	.
!!LO:LB:g=original
=58	=58	=58	=58	=58
4BB/	.	2dd 2g 2f/	.	.
4g 4d 4B\	.	.	.	.
4C/	.	2cc 2g 2e/	.	.
4g 4e 4c\	.	.	.	.
=59!|:	=59!|:	=59!|:	=59!|:	=59!|:
*>D	*	*>D	*	*
4AA/	.	2gg 2cc#X 2a\	.	f
4e 4c#X 4A\	.	.	.	.
4AA/	.	4ff 4cc# 4a\	.	.
4e 4c# 4A\	.	4ee 4cc# 4a\	.	.
=60	=60	=60	=60	=60
4DD/	.	2dd 2a 2f/	.	.
4f 4d 4A\	.	.	.	.
4DD/	.	2a 2f/	.	.
4f 4d 4A\	.	.	.	.
=61	=61	=61	=61	=61
4GG/	.	4.ff 4.b 4.g\	.	.
4g 4d 4B\	.	.	.	.
.	.	8ee\	.	.
4GG/	.	8ddL 8g 8f/	.	.
.	.	8cc/	.	.
4g 4d 4B\	.	8b/	.	.
.	.	8a/J	.	.
=62	=62	=62	=62	=62
4C/	.	2a 2e/	.	>
4g 4e 4c\	.	.	.	.
4C/	.	2g 2e/	.	.
4g 4e 4c\	.	.	.	]]
=63	=63	=63	=63	=63
4C/	.	2g 2e/	.	.
4g 4e 4c\	.	.	.	.
4C/	.	4cc 4g 4e/	.	<
4g 4e 4c\	.	4ee 4cc 4g\	.	.
=64	=64	=64	=64	=64
4FF/	.	2aa 2ff 2cc\	.	[
4f 4c 4A\	.	.	.	.
4C/	.	2gg 2ee 2cc\	.	.
4g 4e 4c\	.	.	.	.
!!LO:LB:g=original
=65	=65	=65	=65	=65
4GG/	.	2gg 2b 2g\	.	.
4g 4d 4B\	.	.	.	.
4BB/	.	4ff 4b 4g\	.	.
4g 4d 4B\	.	4b 4g 4f/	.	.
=66	=66	=66	=66	=66
4GG/	.	2dd 2g 2f\	.	>
4g 4d 4B\	.	.	.	.
4C/	.	2cc 2g 2e/	.	.
4g 4e 4c\	.	.	.	]]
=67:|!	=67:|!	=67:|!	=67:|!	=67:|!
*>E	*	*>E	*	*
*M3/8	*	*M3/8	*	*
!	!	!LO:TX:a:t=Moderato.	!	!
8AA/	.	8cc 8a 8e/	.	p
4e 4c 4A\	.	16cc/LL	.	.
.	.	16e/	.	.
.	.	16a/	.	.
.	.	16cc/JJ	.	.
=68	=68	=68	=68	=68
8C/	.	8ee 8cc 8a\	.	.
4e 4c 4A\	.	16ee\LL	.	.
.	.	16a\	.	.
.	.	16cc\	.	.
.	.	16ee\JJ	.	.
=69	=69	=69	=69	=69
!LO:TX:t=P:problem=mixed beam	!	!	!	!
8DD/L	.	8ggL 8cc 8a\	.	<
8d\	.	8ff#X 8cc 8a\	.	.
8d\J	.	8eeJ 8cc 8g\	.	[
=70	=70	=70	=70	=70
4d\	.	4dd 4cc 4f#X/	.	.
8r	.	8r	.	.
=71||	=71||	=71||	=71||	=71||
*k[f#]	*	*k[f#]	*	*
!LO:TX:t=P:problem=mixed beam	!	!LO:TX:a:t=Mazur. (Grzmią pod Stoczkiem.)	!	!
8DD/L	.	16.g/LL	.	f
.	.	32g/JJk	.	.
8f# 8d 8A\	.	8f#/L	.	.
8f#J 8c\	.	8d/J	.	.
=72	=72	=72	=72	=72
!LO:TX:t=P:problem=mixed beam	!	!	!	!
8GG/L	.	8g\L	.	.
8g 8d 8B\	.	8b\	.	.
8gJ 8d 8B\	.	8dd\J	.	.
!!LO:LB:g=original
=73	=73	=73	=73	=73
!LO:TX:t=P:problem=mixed beam	!	!	!	!
8DD/L	.	16.a\LL	.	.
.	.	32cc\JJk	.	.
8f# 8d 8A\	.	8b/L	.	.
8f#J 8c\	.	8a/J	.	.
=74	=74	=74	=74	=74
!LO:TX:t=P:problem=mixed beam	!	!	!	!
8GG/L	.	8g/L	.	.
8g 8d 8B\	.	8b/	.	.
8gJ 8d 8B\	.	8d/J	.	.
=75	=75	=75	=75	=75
!LO:TX:t=P:problem=mixed beam	!	!	!	!
8DD/L	.	16.g/LL	.	.
.	.	32g/JJk	.	.
8f# 8d 8A\	.	8f#/L	.	.
8f#J 8c\	.	8d/J	.	.
=76	=76	=76	=76	=76
!LO:TX:t=P:problem=mixed beam	!	!	!	!
8GG/L	.	8g\L	.	.
8g 8d 8B\	.	8b\	.	.
8gJ 8d 8B\	.	8dd\J	.	.
=77	=77	=77	=77	=77
8AA\L	.	16.cc#XLL 16.g/	.	.
.	.	32cc#JJk 32g/	.	.
8e 8c#X 8A\	.	8aL 8g\	.	.
8eJ 8c# 8A\	.	8cc#J 8g\	.	.
=78	=78	=78	=78	=78
!LO:TX:t=P:problem=mixed beam	!	!	!	!
8DD/L	.	8ddL 8a 8f#\	.	.
8f# 8d 8A\	.	8ff#\	.	.
8f#J 8d 8A\	.	8dd\J	.	.
=79	=79	=79	=79	=79
8AA\L	.	16.cc#XLL 16.g/	.	.
.	.	32cc#JJk 32g/	.	.
8e 8c#X 8A\	.	8aL 8g\	.	.
8eJ 8c# 8A\	.	8cc#J 8g\	.	.
=80	=80	=80	=80	=80
8DD/	.	8dd 8f#/	.	.
4f# 4d 4A;\	.	4dd 4f#;/	.	.
!!LO:PB:g=original
=81||	=81||	=81||	=81||	=81||
8DD/L	.	16.ddLL 16.cc 16.f#/	.	f
.	.	32ddJJk 32cc 32f#/	.	.
8AA/	.	8ddL 8cc 8f#/	.	.
8DD/J	.	8ddJ 8cc 8f#/	.	.
=82	=82	=82	=82	=82
!LO:TX:t=P:problem=mixed beam	!	!	!	!
8GG/L	.	8ddL 8b 8g\	.	.
8g 8d 8B\	.	8.dd 8.b 8.g\	.	.
8gJ 8d 8B\	.	.	.	.
.	.	16b\Jk	.	.
=83	=83	=83	=83	=83
!LO:TX:t=P:problem=mixed beam	!	!	!	!
8DD/L	.	16.a/LL	.	mf
.	.	32b/JJk	.	.
8f# 8d 8A\	.	8cc\L	.	.
8f#J 8d 8A\	.	8a\J	.	.
=84	=84	=84	=84	=84
!LO:TX:t=P:problem=mixed beam	!	!	!	!
8GG/L	.	8g\L	.	.
8g 8d 8B\	.	8b\	.	.
8gJ 8d 8B\	.	8dd\J	.	.
=85	=85	=85	=85	=85
8C\L	.	16ee\LL	.	f
.	.	16ff#\JJ	.	.
8g 8e 8c\	.	8gg\	.	.
!	!	!LO:TX:a:t=P:problem=slur with a dot	!	!
8gJ 8e 8c\	.	(16ff#\LL	.	.
.	.	16ee\JJ)	.	.
=86	=86	=86	=86	=86
!LO:TX:t=P:problem=mixed beam	!	!	!	!
8GG/L	.	8dd\L	.	.
8g 8d 8B\	.	8.ee\	.	.
8gJ 8d 8B\	.	.	.	.
.	.	16dd\Jk	.	.
=87	=87	=87	=87	=87
!LO:TX:t=P:problem=mixed beam	!	!	!	!
8DD/L	.	16cc\LL	.	mf
!	!	!LO:TX:a:t=P:problem=slur with a dot	!	!
.	.	(32dd\L	.	.
.	.	32cc\JJJ)	.	.
8f# 8d 8A\	.	8b/L	.	.
8f#J 8c\	.	8a/J	.	.
=88	=88	=88	=88	=88
!LO:TX:t=P:problem=mixed beam	!	!	!	!
8GG/L	.	8g\L	.	.
8g 8d 8B\	.	8b\	.	.
8gJ 8d 8B\	.	8dd\J	.	.
!!LO:LB:g=original
=89	=89	=89	=89	=89
8C\L	.	16.ee\LL	.	f
.	.	32ff#\JJk	.	.
8g 8e 8c\	.	8gg\	.	.
!	!	!LO:TX:a:t=P:problem=slur with a dot	!	!
8gJ 8e 8c\	.	(16ff#\LL	.	.
.	.	16ee\JJ)	.	.
=90	=90	=90	=90	=90
!LO:TX:t=P:problem=mixed beam	!	!	!	!
8GG/L	.	8dd\L	.	.
8g 8d 8B\	.	8.ee\	.	.
8gJ 8d 8B\	.	.	.	.
.	.	16dd\Jk	.	.
=91	=91	=91	=91	=91
!LO:TX:t=P:problem=mixed beam	!	!	!	!
8DD/L	.	16cc\LL	.	.
!	!	!LO:TX:a:t=P:problem=slur with a dot	!	!
.	.	(32dd\L	.	.
.	.	32cc\JJJ)	.	.
8f# 8d 8A\	.	8b/L	.	.
8f#J 8d 8A\	.	8a/J	.	.
=92	=92	=92	=92	=92
8GG/	.	8g/	.	.
8g 8d 8B\	.	8gg 8dd 8b^\	.	.
8r	.	8r	.	.
=93||	=93||	=93||	=93||	=93||
*M2/4	*	*M2/4	*	*
!	!	!LO:TX:a:t=Andante.	!	!
2r	.	8r	.	.
.	.	8dd\L	.	.
.	.	8dd\	.	.
.	.	8dd\J	.	.
=94||	=94||	=94||	=94||	=94||
*M4/4	*	*M4/4	*	*
*met(c)	*	*met(c)	*	*
!LO:TX:t=P:problem=mixed beam	!	!LO:TX:a:t=(Tysiąc walecznych.)	!	!
8GG/L	.	4.dd\	.	p
8d\	.	.	.	.
8g 8B\	.	.	.	.
8d\J	.	8b\	.	.
!LO:TX:t=P:problem=mixed beam	!	!	!	!
8GG/L	.	8b\L	.	.
8d\	.	8b\	.	.
8g 8B\	.	8b\	.	.
8d\J	.	8b\J	.	.
!!LO:LB:g=original
=95	=95	=95	=95	=95
!LO:TX:t=P:problem=mixed beam	!	!	!	!
8GG/L	.	4b\	.	.
8d\	.	.	.	.
8g 8B\	.	4g/	.	.
8d\J	.	.	.	.
!LO:TX:t=P:problem=mixed beam	!	!	!	!
8GG/L	.	8r	.	.
8d\	.	8g/L	.	.
8g 8B\	.	8f#/	.	.
8d\J	.	8g/J	.	.
=96	=96	=96	=96	=96
!LO:TX:t=P:problem=mixed beam	!	!	!	!
8DD/L	.	4.a/	.	.
8d\	.	.	.	.
8f# 8c\	.	.	.	.
8d\J	.	8g/	.	.
!LO:TX:t=P:problem=mixed beam	!	!	!	!
8DD/L	.	8f#/L	.	<
8d\	.	8a/J	.	.
8f# 8c\	.	8.eeL 8.cc\	.	[
8d\J	.	.	.	.
.	.	16ddJk 16b\	.	.
=97	=97	=97	=97	=97
!LO:TX:t=P:problem=mixed beam	!	!	!	!
8GG/L	.	[2b [>2g/	.	>
8d\	.	.	.	.
8g 8B\	.	.	.	.
8d\J	.	.	.	.
8GG/	.	8b]L 8g\]	.	]
8r	.	8dd\	.	.
4r	.	8dd\	.	.
.	.	8dd\J	.	.
=98	=98	=98	=98	=98
!LO:TX:t=P:problem=mixed beam	!	!	!	!
8GG/L	.	4.dd\	.	.
8d\	.	.	.	.
8g 8B\	.	.	.	.
8d\J	.	8b\	.	.
!LO:TX:t=P:problem=mixed beam	!	!	!	!
8GG/L	.	8b\L	.	.
8d\	.	8b\	.	.
8g 8B\	.	8b\	.	.
8d\J	.	8b\J	.	.
!!LO:LB:g=original
=99	=99	=99	=99	=99
!LO:TX:t=P:problem=mixed beam	!	!	!	!
8GG/L	.	4b\	.	.
8d\	.	.	.	.
8g 8B\	.	4g/	.	.
8d\J	.	.	.	.
!LO:TX:t=P:problem=mixed beam	!	!	!	!
8GG/L	.	8r	.	.
8d\	.	8g/L	.	.
8g 8B\	.	8f#/	.	.
8d\J	.	8g/J	.	.
=100	=100	=100	=100	=100
!LO:TX:t=P:problem=mixed beam	!	!	!	!
8DD/L	.	4.a/	.	.
8d\	.	.	.	.
8f# 8c\	.	.	.	.
8d\J	.	8g/	.	.
!LO:TX:t=P:problem=mixed beam	!	!	!	!
8DD/L	.	8f#/L	.	<
8d\	.	(8a/J	.	.
.	.	8qee/)	.	[
8f# 8c\	.	8ee\L	.	.
8d\J	.	8dd\J	.	.
=101	=101	=101	=101	=101
*	*	*^	*	*
!LO:TX:t=P:problem=mixed beam	!	!	!	!	!
8GG/L	.	[2g/	2ryy	.	>
8d\	.	.	.	.	.
8g 8B\	.	.	.	.	.
8d\J	.	.	.	.	.
8GG/	.	8g/]	8ryy	.	]
8r	.	8g/L	8g\L	.	<
4r	.	8a/	8f#\	.	.
.	.	8b/J	8fn\J	.	[
*	*	*v	*v	*	*
=102	=102	=102	=102	=102
8C\L	.	4.cc 4.e/	.	.
8g\	.	.	.	.
8e 8c\	.	.	.	.
8g\J	.	(8ee (8cc\	.	.
.	.	8qgg) 8qee/)	.	.
8C\L	.	8ggL 8ee\	.	.
8g\	.	8ggJ 8ee\	.	.
8e 8c\	.	8ff#L 8dd\	.	.
8g\J	.	8eeJ 8cc\	.	.
!!LO:LB:g=original
=103	=103	=103	=103	=103
!LO:TX:t=P:problem=mixed beam	!	!	!	!
8GG/L	.	4dd 4b\	.	>
8d\	.	.	.	.
8g 8B\	.	4b 4g/	.	.
8d\J	.	.	.	]
!LO:TX:t=P:problem=mixed beam	!	!	!	!
8GG/L	.	8r	.	.
8d\	.	8gg\L	.	.
8g 8B\	.	8dd\	.	.
8d\J	.	8b\J	.	.
=104	=104	=104	=104	=104
!LO:TX:t=P:problem=mixed beam	!	!	!	!
8DD/L	.	4.a/	.	.
8d\	.	.	.	.
8f# 8c\	.	.	.	.
8d\J	.	8g/	.	.
!LO:TX:t=P:problem=mixed beam	!	!	!	!
8DD/L	.	8f#/L	.	.
8d\	.	8a/J	.	.
8f# 8c\	.	8ee\L	.	.
8d\J	.	8dd\J	.	.
=105	=105	=105	=105	=105
*	*	*^	*	*
!LO:TX:t=P:problem=mixed beam	!	!	!	!	!
8GG/L	.	[2b\	2ryy	.	.
8d\	.	.	.	.	.
8g 8B\	.	.	.	.	.
8d\J	.	.	.	.	.
8GG/	.	8b\]	8ryy	.	.
8r	.	8g/L	8g\L	.	<
4r	.	8a/	8f#\	.	.
.	.	8b/J	8fn\J	.	[[
*	*	*v	*v	*	*
=106	=106	=106	=106	=106
8C\L	.	4.cc 4.e/	.	.
8g\	.	.	.	.
8e 8c\	.	.	.	.
8g\J	.	(8ee (8cc\	.	.
.	.	8qgg) 8qee/)	.	.
8C\L	.	8ggL 8ee\	.	.
8g\	.	8ggJ 8ee\	.	.
8e 8c\	.	8.ff#L 8.dd\	.	.
8g\J	.	.	.	.
.	.	16eeJk 16cc\	.	.
=107	=107	=107	=107	=107
!LO:TX:t=P:problem=mixed beam	!	!	!	!
8GG/L	.	4dd 4b\	.	.
8d\	.	.	.	.
8g 8B\	.	4b 4g/	.	.
8d\J	.	.	.	.
!LO:TX:t=P:problem=mixed beam	!	!	!	!
8GG/L	.	8r	.	.
8d\	.	8gg\L	.	.
8g 8B\	.	8dd\	.	.
8d\J	.	8b\J	.	.
!!LO:LB:g=original
=108	=108	=108	=108	=108
!LO:TX:t=P:problem=mixed beam	!	!	!	!
8DD/L	.	4.a/	.	.
8d\	.	.	.	.
8f# 8c\	.	.	.	.
8d\J	.	8g/	.	.
!LO:TX:t=P:problem=mixed beam	!	!	!	!
8DD/L	.	8f#/L	.	>
8d\	.	8a/J	.	.
8f# 8c\	.	8.ee\L	.	.
8d\J	.	.	.	.
.	.	16dd\Jk	.	]]
=109	=109	=109	=109	=109
!LO:TX:t=P:problem=mixed beam	!	!	!	!
8GG/L	.	[2g/	.	.
8d\	.	.	.	.
8g 8B\	.	.	.	.
8d\J	.	.	.	.
8GG/	.	4g/]	.	.
8r	.	.	.	.
4r	.	4r	.	.
=110||	=110||	=110||	=110||	=110||
2EE/	.	2b 2g 2e/	.	f
2DD/	.	2b 2g 2e/	.	.
=111	=111	=111	=111	=111
4CC#X/	.	2b 2g 2e/	.	.
4A\	.	.	.	.
4g 4c#X\	.	4a 4g 4e/	.	.
4r	.	4r	.	.
=112	=112	=112	=112	=112
2d\	.	2b-X 2g 2e/	.	.
4c#X\	.	4a 4g 4e/	.	.
4r	.	4r	.	.
=113	=113	=113	=113	=113
*	*	*^	*	*
2B-X\	.	2dd 2g 2e/	2ryy	.	.
2A;\	.	4cc#X/	2g 2e\	.	.
!	!	!LO:TX:a:i:t=Flag.	!	!	!
.	.	4aao<;/	.	.	.
*	*	*v	*v	*	*
!!LO:LB:g=original
=114||	=114||	=114||	=114||	=114||
*k[b-]	*	*k[b-]	*	*
*M3/4	*	*M3/4	*	*
!LO:TX:t=P:problem=mixed beam	!	!LO:TX:a:t=Andante. (Kuranty.)	!	!
8DD/L	.	8.a\L	.	pp
8A\	.	.	.	.
.	.	16ff\Jk	.	.
8f 8d\	.	4.dd\	.	.
8A\	.	.	.	.
8f 8d\	.	.	.	.
8A\J	.	8dd\	.	.
=115	=115	=115	=115	=115
!LO:TX:t=P:problem=mixed beam	!	!LO:TX:a:t=P:problem=slur with a dot	!	!
8DD/L	.	(16cc#X\LL	.	.
.	.	16dd\)	.	.
8A\	.	16ee\	.	.
.	.	16cc#\JJ	.	.
8f 8d\	.	4.dd\	.	.
8A\	.	.	.	.
8f 8d\	.	.	.	.
8A\J	.	8a/	.	.
=116	=116	=116	=116	=116
!LO:TX:t=P:problem=mixed beam	!	!	!	!
8DD/L	.	8ff\L	.	.
8A\	.	(8dd\J	.	.
.	.	8qaa/)	.	.
8f 8d\	.	4.aa\	.	.
8A\	.	.	.	.
8f 8d\	.	.	.	.
!	!	!LO:TX:a:t=P:problem=slur with a dot	!	!
8A\J	.	(16gg\LL	.	.
.	.	16ff\JJ)	.	.
=117	=117	=117	=117	=117
!LO:TX:t=P:problem=mixed beam	!	!LO:TX:a:t=P:problem=slur with a dot	!	!
8DD/L	.	(16ff\LL	.	.
.	.	16ee\)	.	.
8A\	.	16gg\	.	.
.	.	16ff\JJ	.	.
8g 8c#X\	.	4.ee\	.	.
8A\	.	.	.	.
8g 8c#\	.	.	.	.
8A\J	.	8ee\	.	.
=118	=118	=118	=118	=118
!LO:TX:t=P:problem=mixed beam	!	!	!	!
8DD/L	.	8ee\L	.	.
!	!	!LO:TX:a:t=P:problem=slur with a dot	!	!
8A\	.	(16ff\L	.	.
.	.	16ee\JJ)	.	.
8f 8d\	.	8ff\L	.	.
8A\J	.	8aa\J	.	.
8gL 8c#X\	.	8cc#X\L	.	.
8A\J	.	8ee\J	.	.
!!LO:PB:g=original
=119	=119	=119	=119	=119
8BB-\L	.	8dd\L	.	.
!	!	!LO:TX:a:t=P:problem=slur with a dot	!	!
8f\	.	(16dd\L	.	.
.	.	16cc#X\JJ)	.	.
8d 8B-\	.	8dd\L	.	.
8f\J	.	8ff\J	.	.
!LO:TX:t=P:problem=mixed beam	!	!	!	!
8FF/L	.	8a\L	.	.
8fJ 8c 8A\	.	8ccn\J	.	.
=120	=120	=120	=120	=120
!LO:TX:t=P:problem=mixed beam	!	!LO:TX:b:t=P:problem=slur with a dot	!	!
8GG/L	.	(16b-/LL	2	.
.	.	16a/)	3	.
8d\	.	16g/	4	.
.	.	16a/JJ	3	.
8g 8B-\	.	16b-\LL	2	.
.	.	16cc\	1	.
8d\	.	16dd\	4	.
.	.	16ee\JJ	3	.
8g 8B-\	.	16ff\LL	3	.
.	.	16gg\	2	.
8d\J	.	16aa\	1	.
.	.	16bb-\JJ	1	.
=121	=121	=121	=121	=121
!	!	!LO:TX:a:t=P:problem=slur with a dot	!	!
8AA\L	.	(16aa\LL	.	.
.	.	16gg\)	.	.
8A\	.	16ee\	.	.
.	.	16cc#X\JJ	.	.
8g 8c#X\	.	4ee\	.	.
8A\J	.	.	.	.
8d 8DD\	.	8dd\	.	.
8r	.	8r	.	.
=122!|:	=122!|:	=122!|:	=122!|:	=122!|:
*>F	*	*>F	*	*
*M2/4	*	*M2/4	*	*
!	!	!LO:TX:a:t=Moderato. Preludium.	!	!
4d\	.	4aa 4ff 4dd\	.	pp
4d\	.	4ff 4dd 4a\	.	.
=123	=123	=123	=123	=123
2r	.	4ff 4dd 4b- 4G/	.	.
.	.	4ee 4dd 4b- 4G/	.	.
=124	=124	=124	=124	=124
4A\	.	4gg 4cc#X 4a\	.	.
4A\	.	8ffL 8cc# 8a\	.	.
.	.	8eeJ 8cc# 8a\	.	.
!!LO:LB:g=original
=125	=125	=125	=125	=125
4d\	.	4ee 4a 4f/	.	.
4d\	.	4dd 4a 4f/	.	.
=126	=126	=126	=126	=126
!LO:TX:t=1.	!	!	!	!
*>F1	*	*>F1	*	*
4d\	.	4aa 4ff 4dd\	.	<
4d\	.	4aa 4ff 4dd\	.	[[
=127	=127	=127	=127	=127
*	*	*^	*	*
2e\	.	4aa 4dd 4b-\	2G/	.	.
.	.	4gg 4dd 4b-\	.	.	.
*	*	*v	*v	*	*
=128	=128	=128	=128	=128
4G#X\	.	4ff 4dd 4bn\	.	>
4G#\	.	4ee 4dd 4b\	.	.
=129	=129	=129	=129	=129
2A\	.	2ee 2cc#X 2a\	.	]]
=130:|!	=130:|!	=130:|!	=130:|!	=130:|!
!LO:TX:t=2.	!	!	!	!
*>F2	*	*>F2	*	*
4d\	.	4aa 4ff 4dd\	.	<
4c\	.	4aa 4ff#X 4dd\	.	[[
=131	=131	=131	=131	=131
4B-\	.	4bb- 4gg 4dd\	.	.
4r	.	4gg 4dd 4b- 4G/	.	.
=132	=132	=132	=132	=132
4A\	.	4ff 4dd 4a\	.	>
4A\	.	4ee 4cc#X 4a\	.	.
=133	=133	=133	=133	=133
2d 2DD\	.	2dd 2a 2f/	.	]]
=134||	=134||	=134||	=134||	=134||
*>G	*	*>G	*	*
*k[b-e-]	*	*k[b-e-]	*	*
*M3/4	*	*M3/4	*	*
2f#X 2d 2A 2DD;<\	.	2dd 2cc 2f#X;/	.	f
4r	.	4r	.	.
=135||	=135||	=135||	=135||	=135||
*k[f#]	*	*k[f#]	*	*
!	!	!LO:TX:a:t=Festivo. (Wlazł kotek.)	!	!
2.d\	.	4dd 4b\	.	p
.	.	4b 4g/	.	.
.	.	4b 4g/	.	.
=136	=136	=136	=136	=136
2.d\	.	4cc 4a\	.	.
!	!	!LO:TX:t=△:note=1	!	!
.	.	4a 4d/	.	.
.	.	4a 4d/	.	.
!!LO:LB:g=original
=137	=137	=137	=137	=137
!	!	!LO:TX:t=△:note=1	!	!
2d\	.	8gL 8d/	.	.
.	.	8b/J	.	.
.	.	4dd 4b 4g\	.	.
4r	.	4r	.	.
=138	=138	=138	=138	=138
!	!	!LO:TX:a:i:t=rit.	!	!
4d\	.	4dd 4b\	.	pp
4r	.	4b 4g/	.	.
4r	.	4b 4g/	.	.
=139	=139	=139	=139	=139
4d\	.	4cc 4a\	.	.
!	!	!LO:TX:t=△:note=1	!	!
4r	.	4a 4do</	.	.
4r;	.	4a 4d;/	.	.
=140	=140	=140	=140	=140
2.r	.	4g/	.	<
.	.	4a 4f#/	.	.
.	.	4b 4fn/	.	[[
=141||	=141||	=141||	=141||	=141||
*k[]	*	*k[]	*	*
*M6/8	*	*M6/8	*	*
!	!	!LO:TX:a:t=Moderato. (Arya Halki&colon; Jako od wichrów.)	!	!
8C\L	.	4cc 4e/	.	.
8g\	.	.	.	.
8eJ 8c\	.	8cc\	.	.
8C\L	.	8ee\L	.	.
8g\	.	8dd\	.	.
8eJ 8c\	.	8ee\J	.	.
=142	=142	=142	=142	=142
8C\L	.	4cc\	.	.
8g\	.	.	.	.
8eJ 8c\	.	8g/	.	.
8C\L	.	8g/L	.	.
8g\	.	8f/	.	.
8eJ 8c\	.	8e/J	.	.
=143	=143	=143	=143	=143
!LO:TX:t=P:problem=mixed beam	!	!	!	!
8FF/L	.	4f/	.	.
8c\	.	.	.	.
8fJ 8A\	.	8a/	.	.
!LO:TX:t=P:problem=mixed beam	!	!	!	!
8GG/L	.	8.g/L	.	.
8g\	.	.	.	.
.	.	16a/K	.	.
8fJ 8B\	.	8b/J	.	.
!!LO:LB:g=original
=144	=144	=144	=144	=144
8C\L	.	4.cc 4.g 4.e/	.	>
8g\	.	.	.	.
8eJ 8c\	.	.	.	]
4r	.	8g/L	.	<
.	.	8a 8f#X/	.	.
8r	.	8bJ 8fn/	.	[
=145	=145	=145	=145	=145
8C\L	.	4cc 4e/	.	.
8g\	.	.	.	.
8eJ 8c\	.	8cc\	.	.
8C\L	.	8ee\L	.	>
8g\	.	8dd\	.	.
8eJ 8c\	.	8ee\J	.	.
=146	=146	=146	=146	=146
8C\L	.	4cc\	.	]
8g\	.	.	.	.
8eJ 8c\	.	8g/	.	<
8C\L	.	8g/L	.	.
8g\	.	8f/	.	.
8eJ 8c\	.	8e/J	.	[
=147	=147	=147	=147	=147
!LO:TX:t=P:problem=mixed beam	!	!	!	!
8FF/L	.	4f/	.	.
8c\	.	.	.	.
8fJ 8A\	.	8a/	.	.
!LO:TX:t=P:problem=mixed beam	!	!	!	!
8GG/L	.	8.dd\L	.	.
8g\	.	.	.	.
.	.	16cc\K	.	.
8fJ 8B\	.	8b\J	.	.
=148	=148	=148	=148	=148
8C\L	.	4cc\	.	.
8g\	.	.	.	.
8eJ 8c\	.	8r	.	.
!LO:TX:t=P:problem=mixed beam	!	!	!	!
8FF/L	.	8cc/L	.	.
8f 8c\	.	8a/	.	.
8GG/J	.	8bJ 8g 8f/	.	.
=149	=149	=149	=149	=149
8C\L	.	4cc 4g 4e/	.	.
8g\	.	.	.	.
8eJ 8c\	.	8cc\	.	.
!LO:TX:t=P:problem=mixed beam	!	!	!	!
8FF/L	.	8cc/L	.	.
8f 8c\	.	8a/	.	.
8GG/J	.	8bJ 8g 8f/	.	.
!!LO:LB:g=original
=150	=150	=150	=150	=150
8C\L	.	4cc 4g 4e/	.	.
8g\	.	.	.	.
8eJ 8c\	.	8cc\	.	.
!LO:TX:t=P:problem=mixed beam	!	!	!	!
8FF/L	.	8cc/L	.	.
8f 8c\	.	8a/	.	.
8GG/J	.	8bJ 8g 8f/	.	.
=151	=151	=151	=151	=151
8C\L	.	8ccL 8g 8e/	.	.
8g\	.	8b/	.	.
8eJ 8c\	.	8cc/J	.	.
!LO:TX:t=P:problem=mixed beam	!	!	!	!
8DD/L	.	4dd\	.	.
8d\	.	.	.	.
8f#XJ 8c\	.	8cc\	.	.
=152	=152	=152	=152	=152
!LO:TX:t=P:problem=mixed beam	!	!	!	!
8GG/L	.	4b 4g 4d/	.	.
8d\	.	.	.	.
8gJ 8B\	.	8r	.	.
!LO:TX:t=P:problem=mixed beam	!	!	!	!
8DD/L	.	8dd\L	.	mf
8A\	.	8a\	.	.
8f#XJ 8d\	.	8b\J	.	.
=153	=153	=153	=153	=153
8AA\L	.	4cc#X\	.	.
8e\	.	.	.	.
8c#XJ 8A\	.	8cc#\	.	.
!LO:TX:t=P:problem=mixed beam	!	!	!	!
8DD/L	.	8dd\L	.	.
8A\	.	8a\	.	.
8f#XJ 8d\	.	8b\J	.	.
=154	=154	=154	=154	=154
8AA\L	.	4cc#X\	.	.
8e\	.	.	.	.
!	!	!	!	!LO:HP:a
8c#XJ 8A\	.	8cc#\	.	<
!LO:TX:t=P:problem=mixed beam	!	!	!	!
8DD/L	.	8.dd\L	.	.
8A\	.	.	.	.
.	.	16cc#\K	.	.
8fnJ 8d\	.	8dd\J	.	.
=155	=155	=155	=155	=155
!LO:TX:t=P:problem=mixed beam	!	!	!	!
8GG/L	.	8.ee\L	.	.
8g\	.	.	.	.
.	.	16dd\K	.	.
8eJ 8c\	.	8ee\J	.	[
!LO:TX:t=P:problem=mixed beam	!	!	!	!
8GG/L	.	[4.ff [4.b [4.g\	.	.
8B\	.	.	.	.
8d\J	.	.	.	.
!!LO:LB:g=original
=156	=156	=156	=156	=156
4.f\	.	8ff]L 8b] 8g\]	.	.
.	.	8ee\	.	.
.	.	8dd\J	.	.
4r	.	8dd\L	.	.
.	.	8cc\	.	.
8r	.	8b\J	.	.
=157	=157	=157	=157	=157
2.r	.	8b/L	.	.
.	.	8a/	.	.
.	.	8g/J	.	.
.	.	[4.gg\	.	.
=158	=158	=158	=158	=158
4r	.	4.gg\_	.	.
8r	.	.	.	.
8r	.	8gg\L]	.	.
8A\L	.	8ff#X\	.	.
8B\J	.	8ffn\J	.	.
=159	=159	=159	=159	=159
8cL 8C\	.	4ee\	.	.
8g\	.	.	.	.
8eJ 8c\	.	8cc\	.	.
8C\L	.	8g/L	.	.
8g\	.	8f#X/	.	.
8eJ 8c\	.	8g/J	.	.
=160	=160	=160	=160	=160
8C\L	.	4cc\	.	.
8g\	.	.	.	.
8eJ 8c\	.	8g/	.	.
8C\L	.	8ee\L	.	.
8g\	.	8dd\	.	.
8eJ 8c\	.	8cc\J	.	.
=161	=161	=161	=161	=161
!LO:TX:t=P:problem=mixed beam	!	!	!	!
8FF/L	.	4ff\	.	.
8c\	.	.	.	.
8fJ 8A\	.	8a/	.	.
!LO:TX:t=P:problem=mixed beam	!	!	!	!
8GG/L	.	8b\L	.	.
8g\	.	8cc\	.	.
8fJ 8B\	.	8dd\J	.	.
!!LO:LB:g=original
=162	=162	=162	=162	=162
8C\L	.	4cc\	.	.
8g\	.	.	.	.
8eJ 8c\	.	8g/	.	.
!LO:TX:t=P:problem=mixed beam	!	!	!	!
8GG/L	.	8g/L	.	.
8g\	.	8a/	.	.
8fJ 8B\	.	8b/J	.	.
=163	=163	=163	=163	=163
8C\L	.	4cc\	.	.
8g\	.	.	.	.
8eJ 8c\	.	8cc\	.	.
8C\L	.	8ee\L	.	.
8g\	.	8dd\	.	.
8eJ 8c\	.	8ee\J	.	.
=164	=164	=164	=164	=164
8C\L	.	4cc\	.	.
8g\	.	.	.	.
8eJ 8c\	.	8cc\	.	.
!LO:TX:t=P:problem=mixed beam	!	!	!	!
8FF/L	.	8dd\L	.	.
8c\	.	8cc\	.	.
8fJ 8A\	.	8a\J	.	.
=165	=165	=165	=165	=165
!LO:TX:t=P:problem=mixed beam	!	!	!	!
8GG/L	.	8g/L	.	.
8g\	.	8f#X/	.	.
8eJ 8c\	.	8g/J	.	.
4.GG;/	.	4.ffn 4.b 4.g;\	.	.
=166	=166	=166	=166	=166
4.GG#X/	.	4.ff 4.b 4.g#X\	.	f
4.AA/	.	4.ee 4.cc 4.a\	.	.
=167	=167	=167	=167	=167
4.FF/	.	4.dd 4.a 4.f/	.	.
4.EE/	.	4.cc 4.a 4.e/	.	.
=168	=168	=168	=168	=168
4.EE/	.	(>4.b 4.g#X 4.d/	.	.
.	.	8qee/)	.	.
4e\	.	4ee 4b 4g#\	.	.
8r;	.	8r;	.	.
!!LO:PB:g=original
=169||	=169||	=169||	=169||	=169||
*M4/4	*	*M4/4	*	*
*met(c)	*	*met(c)	*	*
!	!	!LO:TX:a:t=(Marsz żałobny.)	!	!
8AA\L	.	4e/	.	p
8e\J	.	.	.	.
4c 4A\	.	(16f/LL	.	.
.	.	16e/	.	.
.	.	16d#X/	.	.
.	.	(16e/JJ)	.	.
.	.	8qcc/)	.	.
8AA\L	.	4.cc\	.	.
8e\J	.	.	.	.
4c 4A\	.	.	.	.
.	.	8b\	.	.
=170	=170	=170	=170	=170
8AA\L	.	4.a/	.	.
8e\J	.	.	.	.
4c 4A\	.	.	.	.
.	.	8g/	.	.
8AA\L	.	4f/	.	.
8e\J	.	.	.	.
4c 4A\	.	4e/	.	.
=171	=171	=171	=171	=171
!LO:TX:t=P:problem=mixed beam	!	!	!	!
8EE/L	.	4b\	.	.
8e\J	.	.	.	.
4d 4G#X\	.	(16cc/LL	.	.
.	.	16b/	.	.
.	.	16a#X/	.	.
.	.	16b/JJ)	.	.
!LO:TX:t=P:problem=mixed beam	!	!	!	!
8GG#X/L	.	4.dd\	.	.
8e\J	.	.	.	.
4d 4G#\	.	.	.	.
.	.	8cc\	.	.
=172	=172	=172	=172	=172
!LO:TX:t=P:problem=mixed beam	!	!	!	!
8EE/L	.	4.b\	.	.
8e\J	.	.	.	.
4d 4G#X\	.	.	.	.
.	.	8cc\	.	.
!LO:TX:t=P:problem=mixed beam	!	!	!	!
8EE/L	.	4b\	.	.
8d\	.	.	.	.
8c\	.	4r	.	.
8B\J	.	.	.	.
!!LO:LB:g=original
=173	=173	=173	=173	=173
8AA\L	.	4e/	.	.
8e\J	.	.	.	.
4c 4A\	.	(16f/LL	.	.
.	.	16e/	.	.
.	.	16d#X/	.	.
.	.	(16e/JJ)	.	.
.	.	8qcc/)	.	.
8AA\L	.	4.cc\	.	.
8e\J	.	.	.	.
4c 4A\	.	.	.	.
.	.	8b\	.	.
=174	=174	=174	=174	=174
8AA\L	.	4.a/	.	.
8e\J	.	.	.	.
4c 4A\	.	.	.	.
.	.	8g/	.	.
8AA\L	.	4f/	.	.
8e\J	.	.	.	.
4c 4A\	.	4e/	.	.
=175	=175	=175	=175	=175
8AA\L	.	8e/L	.	<
8e\J	.	8ee/	.	.
4c 4A\	.	8cc/	.	.
.	.	8a/J	.	.
!LO:TX:t=P:problem=mixed beam	!	!	!	!
8EE/L	.	4.b 4.g#X 4.e/	.	[
8e\J	.	.	.	.
4d 4G#X\	.	.	.	.
.	.	8g#/	.	.
=176	=176	=176	=176	=176
4AA/	.	4a/	.	>
4e 4A 4AA\	.	8.aL 8.c/	.	.
.	.	16aJk 16c/	.	.
4e 4A 4AA\	.	4a 4c/	.	]
4r	.	4r	.	.
!!LO:LB:g=original
=177||	=177||	=177||	=177||	=177||
4e 4B 4G#X 4EE\	.	4b 4g#X 4e^/	.	f
4e 4B 4G# 4EE\	.	8.bL 8.g# 8.e^/	.	.
.	.	16bJk 16g# 16e^/	.	.
8eL 8B 8G# 8EE\	.	4b 4g# 4e^/	.	.
8d^\	.	.	.	.
8c^\	.	4r	.	.
8B^\J	.	.	.	.
=178	=178	=178	=178	=178
4e 4A 4AA\	.	4cc 4a 4e^/	.	.
4e 4A 4AA\	.	8.ccL 8.a 8.e^/	.	.
.	.	16ccJk 16a 16e/	.	.
8eL 8A 8AA\	.	4cc 4a 4e^/	.	.
8e^\	.	.	.	.
8c^\	.	4r	.	.
8A^\J	.	.	.	.
=179	=179	=179	=179	=179
4GG/	.	4dd 4b 4g 4G^>/	.	.
4GG/	.	8.ddL 8.b 8.g 8.G^>/	.	.
.	.	16ddJk 16b 16g/	.	.
!LO:TX:t=P:problem=mixed beam	!	!	!	!
8GG/L	.	4dd 4b 4g 4G^>/	.	.
8f^\	.	.	.	.
8e^\	.	4r	.	.
8d^\J	.	.	.	.
=180	=180	=180	=180	=180
4g 4e 4c 4C\	.	4ee 4cc 4g^\	.	.
4g 4e 4c 4C\	.	8.eeL 8.cc 8.g^\	.	.
.	.	16eeJk 16cc 16g\	.	.
4g 4e 4c 4C\	.	4ee 4cc 4g^\	.	.
4e 4B 4G#X 4EE^\	.	4r	.	.
!!LO:LB:g=original
=181	=181	=181	=181	=181
8AA\L	.	4e/	.	p
8e\J	.	.	.	.
4c 4A\	.	(16f/LL	.	.
.	.	16e/	.	.
.	.	16d#X/	.	.
.	.	(16e/JJ)	.	.
.	.	8qcc/)	.	.
8AA\L	.	4.cc\	.	.
8e\J	.	.	.	.
4c 4A\	.	.	.	.
.	.	8b\	.	.
=182	=182	=182	=182	=182
8AA\L	.	4.a/	.	.
8e\J	.	.	.	.
4c 4A\	.	.	.	.
.	.	8g/	.	.
8AA\L	.	4f/	.	.
8e\J	.	.	.	.
4c 4A\	.	4e/	.	.
=183	=183	=183	=183	=183
8AA\L	.	8e/L	.	.
8e\J	.	8ee/	.	.
4c 4A\	.	8cc/	.	.
.	.	8a/J	.	.
!LO:TX:t=P:problem=mixed beam	!	!	!	!
8EE/L	.	4.b 4.g#X 4.e/	.	.
8e\J	.	.	.	.
4d 4G#X\	.	.	.	.
.	.	8g#/	.	.
=184	=184	=184	=184	=184
4AA/	.	4a/	.	>
4e 4A 4AA\	.	8.aL 8.c/	.	.
.	.	16aJk 16c/	.	.
4e 4A 4AA\	.	4a 4c/	.	.
4r	.	4r	.	]
!!LO:LB:g=original
=185	=185	=185	=185	=185
!	!	!LO:TX:a:i:t=rit.	!	!
4e 4c#X 4A 4AA\	.	4a 4g 4e/	.	<
4e 4c# 4A 4AA\	.	8.aL 8.g 8.e/	.	.
.	.	16aJk 16g 16e/	.	.
4e 4c# 4A 4AA\	.	4a 4g 4e;/	.	[
4r	.	4r	.	.
=186!|:	=186!|:	=186!|:	=186!|:	=186!|:
*>H	*	*>H	*	*
*k[f#c#]	*	*k[f#c#]	*	*
*M2/4	*	*M2/4	*	*
!	!	!LO:TX:a:t=Moderato. (Krakowiak.)	!	!
8AA\L	.	8ff#L 8a\	.	mf
8A\J	.	8eeJ 8g\	.	.
4g 4c#\	.	4gg 4b\	.	.
=187	=187	=187	=187	=187
!LO:TX:t=P:problem=mixed beam	!	!	!	!
8DD/L	.	8ff# 8a\	.	.
8A\J	.	4a 4f#/	.	.
4f# 4d\	.	.	.	.
.	.	8dd 8f#/	.	.
=188	=188	=188	=188	=188
8AA\L	.	8ddL 8g\	.	.
8A\J	.	8cc#J 8g\	.	.
4g 4c#\	.	4ee 4g\	.	.
=189	=189	=189	=189	=189
!LO:TX:t=P:problem=mixed beam	!	!	!	!
8DD/L	.	8dd 8f#/	.	.
8A\J	.	4ff# 4a\	.	.
4f# 4d\	.	.	.	.
.	.	8ff# 8a\	.	.
=190	=190	=190	=190	=190
8AA\L	.	8ff#L 8a\	.	.
8A\J	.	8eeJ 8g\	.	.
4g 4c#\	.	4gg 4b\	.	.
=191	=191	=191	=191	=191
!LO:TX:t=P:problem=mixed beam	!	!	!	!
8DD/L	.	8ff# 8a\	.	.
8A\J	.	4a 4f#/	.	.
4f# 4d\	.	.	.	.
.	.	8dd 8f#/	.	.
!!LO:LB:g=original
=192	=192	=192	=192	=192
8AA\L	.	8ddL 8g\	.	.
8A\J	.	8cc#J 8g\	.	.
4g 4c#;<\	.	8.ff#L 8.a;\	.	.
.	.	16eeJk 16g\	.	.
=193	=193	=193	=193	=193
!LO:TX:t=P:problem=mixed beam	!	!	!	!
8DD/L	.	8eeL 8g\	.	.
8f#J 8d 8A\	.	8ddJ 8f#\	.	.
4r	.	4r	.	.
=194:|!|:	=194:|!|:	=194:|!|:	=194:|!|:	=194:|!|:
*>I	*	*>I	*	*
*k[f#]	*	*k[f#]	*	*
*M3/8	*	*M3/8	*	*
!LO:TX:t=P:problem=mixed beam	!	!LO:TX:a:t=Mazur. (Do Miechowa.)	!	!
8GG/L	.	8ddL 8b 8g\	.	f
8g 8d 8B\	.	8b\	.	.
8gJ 8d 8B\	.	8b\J	.	.
=195	=195	=195	=195	=195
!LO:TX:t=P:problem=mixed beam	!	!LO:TX:b:t=P:problem=slur with a dot	!	!
8DD/L	.	(16a/LL	.	.
.	.	16b/JJ)	.	.
8f# 8d 8A\	.	8cc\	.	.
!	!	!LO:TX:b:t=P:problem=slur with a dot	!	!
8f#J 8c\	.	(16b/LL	.	.
.	.	16a/JJ)	.	.
=196	=196	=196	=196	=196
!LO:TX:t=P:problem=mixed beam	!	!	!	!
8GG/L	.	8dd\	.	.
!	!	!LO:TX:a:t=P:problem=slur with a dot	!	!
8g 8d 8B\	.	(16b\LL	.	.
.	.	16dd\)	.	.
8gJ 8d 8B\	.	16b\	.	.
.	.	16g\JJ	.	.
=197	=197	=197	=197	=197
!LO:TX:t=P:problem=mixed beam	!	!LO:TX:b:t=P:problem=slur with a dot	!	!
8DD/L	.	(16a/LL	.	.
.	.	16b/JJ)	.	.
8f# 8d 8A\	.	8cc\	.	.
!	!	!LO:TX:b:t=P:problem=slur with a dot	!	!
8f#J 8c\	.	(16b/LL	.	.
.	.	16a/JJ)	.	.
=198	=198	=198	=198	=198
!LO:TX:t=P:problem=mixed beam	!	!	!	!
8GG/L	.	8dd\L	.	.
8g 8d 8B\	.	8.b\J	.	.
8gJ 8d 8B\	.	.	.	.
.	.	16g/	.	.
!!LO:PB:g=original
=199	=199	=199	=199	=199
8C\L	.	16.cc\LL	.	.
.	.	32ee\JJk	.	.
8g 8e 8c\	.	8.gg\L	.	.
8gJ 8e 8c\	.	.	.	.
.	.	16ee\Jk	.	.
=200	=200	=200	=200	=200
!LO:TX:t=P:problem=mixed beam	!	!LO:TX:a:t=P:problem=slur with a dot	!	!
8DD/L	.	(16ee\LL	.	.
.	.	16dd\)	.	.
8f# 8d 8A\	.	16cc\	.	.
!	!	!LO:TX:a:t=P:problem=slur with a dot	!	!
.	.	(16f#\	.	.
8f#J 8c\	.	16a\)	.	.
.	.	16cc\JJ	.	.
=201	=201	=201	=201	=201
!LO:TX:t=P:problem=mixed beam	!	!LO:TX:a:t=P:problem=slur with a dot	!	!
8GG/L	.	(16ee\LL	.	.
.	.	16dd\JJ)	.	.
8g 8d 8B\	.	8cc#X\L	.	.
8gJ 8d 8B\	.	8dd\J	.	.
=202	=202	=202	=202	=202
!LO:TX:t=P:problem=mixed beam	!	!	!	!
8GG/L	.	8gg\L	.	.
8g 8d 8B\	.	8.dd\	.	.
8gJ 8d 8B\	.	.	.	.
.	.	16dd#X\Jk	.	.
=203	=203	=203	=203	=203
8C\L	.	8ee\L	.	.
8e 8c 8A\	.	8.aa\	.	.
8eJ 8c 8A\	.	.	.	.
.	.	16gg\Jk	.	.
=204	=204	=204	=204	=204
!LO:TX:t=P:problem=mixed beam	!	!LO:TX:a:t=P:problem=slur with a dot	!	!
8DD/L	.	(16gg\LL	.	.
.	.	16ff#\)	.	.
8f# 8d 8A\	.	16ee\	.	.
.	.	16dd\	.	.
8f#J 8c\	.	16ee\	.	.
.	.	16ff#\JJ	.	.
=205	=205	=205	=205	=205
!LO:TX:t=P:problem=mixed beam	!	!	!	!
8GG/L	.	8gg\L	.	.
8gJ 8d 8B\	.	8gg\J	.	.
8r	.	8r	.	.
!!LO:LB:g=original
=206:|!	=206:|!	=206:|!	=206:|!	=206:|!
*>J	*	*>J	*	*
*M4/4	*	*M4/4	*	*
*met(c)	*	*met(c)	*	*
!	!	!LO:TX:a:t=Maestoso. (Marsz Sobieskiego.)	!	!
4GG/	.	4b\	.	mf
4g 4d 4B\	.	8dd\L	.	.
.	.	8b\J	.	.
4DD/	.	4a/	.	.
4f# 4d 4A\	.	8cc\L	.	.
.	.	8a\J	.	.
=207	=207	=207	=207	=207
4GG/	.	4g/	.	.
4g 4d 4B\	.	8b/L	.	.
.	.	8g/J	.	.
4GG/	.	4d/	.	.
4g 4d 4B\	.	4r	.	.
=208	=208	=208	=208	=208
4GG/	.	4g/	.	.
4d\	.	4b\	.	.
4g 4B\	.	4b\	.	.
4d\	.	4dd\	.	.
=209	=209	=209	=209	=209
!	!	!LO:TX:a:t=P:problem=slur with a dot	!	!
4DD/	.	(8dd\L	.	.
.	.	8cc\J)	.	.
4d\	.	8b\L	.	.
.	.	8cc\J	.	.
4f# 4c\	.	4a/	.	.
4d\	.	4d/	.	.
=210	=210	=210	=210	=210
4GG/	.	4b\	.	.
4g 4d 4B\	.	8dd\L	.	.
.	.	8b\J	.	.
4DD/	.	4a/	.	.
4f# 4d 4A\	.	8cc\L	.	.
.	.	8a\J	.	.
!!LO:LB:g=original
=211	=211	=211	=211	=211
4GG/	.	4g/	.	.
4g 4d 4B\	.	8b/L	.	.
.	.	8g/J	.	.
4GG/	.	4.d/	.	.
4BB/	.	.	.	.
.	.	8d#X/	.	.
=212	=212	=212	=212	=212
4C/	.	4e/	.	.
4e 4c 4A\	.	8cc\L	.	.
.	.	8a\J	.	.
4DD/	.	4g/	.	.
4f# 4c\	.	4f#/	.	.
=213	=213	=213	=213	=213
4GG/	.	4g/	.	.
4g 4d 4B\	.	8g/L	.	.
.	.	8g/J	.	.
4g 4d 4B\	.	4g/	.	.
4r	.	4r	.	.
=214||	=214||	=214||	=214||	=214||
4DD/	.	4dd 4a 4f#/	.	ff
4f# 4d 4A\	.	4dd 4a 4f#/	.	.
4AA/	.	4.a 4.g 4.e/	.	.
4e 4c#X 4A\	.	.	.	.
.	.	8g/	.	.
=215	=215	=215	=215	=215
!	!	!LO:TX:b:t=P:problem=slur with a dot	!	!
4DD/	.	(8f#/L	.	.
.	.	8g/)	.	.
4f# 4d 4A\	.	8a/	.	.
.	.	8f#/J	.	.
4f# 4d 4A\	.	2d/	.	.
4f# 4d 4A\	.	.	.	.
!!LO:LB:g=original
=216	=216	=216	=216	=216
4DD/	.	4cc 4a 4d^>/	.	.
4f# 4d 4A\	.	8a\L	.	.
.	.	8cc\J	.	.
4GG/	.	4b 4g 4d^>/	.	.
4g 4d 4B\	.	8g/L	.	.
.	.	8b/J	.	.
=217	=217	=217	=217	=217
4DD/	.	4a 4d^>/	.	.
4d\	.	8dd\L	.	.
.	.	8ee\J	.	.
4f# 4c\	.	8dd\L	.	.
.	.	8cc\J	.	.
4d\	.	8b/L	.	.
.	.	8a/J	.	.
=218	=218	=218	=218	=218
4GG/	.	4b\	.	mf
4g 4d 4B\	.	8dd\L	.	.
.	.	8b\J	.	.
4DD/	.	4a/	.	.
4f# 4d 4A\	.	8cc\L	.	.
.	.	8a\J	.	.
=219	=219	=219	=219	=219
4GG/	.	4g/	.	.
4g 4d 4B\	.	8b/L	.	.
.	.	8g/J	.	.
4GG/	.	4.d/	.	.
4g 4d 4B\	.	.	.	.
.	.	8d#X/	.	.
=220	=220	=220	=220	=220
4C/	.	4e/	.	.
4e 4c 4A\	.	8cc\L	.	.
.	.	8a\J	.	.
4DD/	.	4g/	.	.
4f# 4c\	.	4f#/	.	.
!!LO:LB:g=original
=221	=221	=221	=221	=221
4GG/	.	4g/	.	.
4g 4d 4B\	.	8.gL 8.d 8.B/	.	.
.	.	16g/Jk	.	.
4GG/	.	4g 4d 4B/	.	.
4r	.	4r	.	.
=222||	=222||	=222||	=222||	=222||
*M2/4	*	*M2/4	*	*
!LO:TX:t=P:problem=mixed beam	!	!LO:TX:a:t=(Krakowiak.)	!	!
8GG/L	.	4.dd\	.	p
8d\	.	.	.	.
8g 8B\	.	.	.	.
8d\J	.	8cc#X\	.	.
=223	=223	=223	=223	=223
!LO:TX:t=P:problem=mixed beam	!	!	!	!
8DD/L	.	8dd\L	.	.
8d\	.	8ee\J	.	.
8f# 8c\	.	8ccn\L	.	.
8d\J	.	8a\J	.	.
=224	=224	=224	=224	=224
!LO:TX:t=P:problem=mixed beam	!	!	!	!
8GG/L	.	8g/L	.	.
8d\	.	8b/J	.	.
8g 8B\	.	8dd\L	.	.
8d\J	.	8b\J	.	.
=225	=225	=225	=225	=225
!LO:TX:t=P:problem=mixed beam	!	!	!	!
8DD/L	.	8a/	.	.
8d\	.	4cc\	.	.
8f# 8c\	.	.	.	.
8d\J	.	8a/	.	.
=226	=226	=226	=226	=226
!LO:TX:t=P:problem=mixed beam	!	!	!	!
8GG/L	.	8g/L	.	.
8d\	.	8b/J	.	.
8g 8B\	.	8dd\L	.	.
8d\J	.	8b\J	.	.
=227	=227	=227	=227	=227
!LO:TX:t=P:problem=mixed beam	!	!	!	!
8DD/L	.	8a/	.	.
8d\	.	4cc\	.	.
8f# 8c\	.	.	.	.
8d\J	.	8a/	.	.
!!LO:LB:g=original
=228	=228	=228	=228	=228
!LO:TX:t=P:problem=mixed beam	!	!	!	!
8GG/L	.	8g\L	.	<
8d\	.	8b\	.	.
8g 8B\	.	8dd\	.	.
8d\J	.	8gg\J	.	[[
=229	=229	=229	=229	=229
8C\L	.	8ff#\	.	.
8e\	.	4ee\	.	.
8c 8A\	.	.	.	.
8e\J	.	8ee\	.	.
=230	=230	=230	=230	=230
!LO:TX:t=P:problem=mixed beam	!	!	!	!
8DD/L	.	8dd\L	.	>
8d\	.	8cc#X\J	.	.
8f# 8c\	.	8ccn\L	.	.
8d\J	.	8a\J	.	]]
=231	=231	=231	=231	=231
!LO:TX:t=P:problem=mixed beam	!	!	!	!
8GG/L	.	8g/	.	.
8d\	.	4b\	.	.
8g 8B\	.	.	.	.
8d\J	.	8g/	.	.
=232	=232	=232	=232	=232
!LO:TX:t=P:problem=mixed beam	!	!	!	!
8GG/L	.	8g\L	.	<
8d\	.	8b\	.	.
8g 8B\	.	8dd\	.	.
8d\J	.	8gg\J	.	[[
=233	=233	=233	=233	=233
8C\L	.	8ff#\	.	.
8e\	.	4ee\	.	.
8c 8A\	.	.	.	.
8e\J	.	8ee\	.	.
=234	=234	=234	=234	=234
!LO:TX:t=P:problem=mixed beam	!	!	!	!
8DD/L	.	8dd\L	.	.
8d\	.	8cc#X\J	.	>
8f# 8c\	.	8ccn\L	.	.
8d\J	.	8a\J	.	]]
=235	=235	=235	=235	=235
!LO:TX:t=P:problem=mixed beam	!	!	!	!
8GG/L	.	8g/L	.	.
8gJ 8d 8B\	.	8g/J	.	.
4r	.	4r	.	.
!!LO:PB:g=original
=236||	=236||	=236||	=236||	=236||
*k[b-e-]	*	*k[b-e-]	*	*
*M4/4	*	*M4/4	*	*
*met(c)	*	*met(c)	*	*
!	!	!LO:TX:a:t=(Gdyby rannem słonkiem.)	!	!
4GG/	.	8.g/L	.	p
.	.	16d/Jk	.	.
4g 4d 4B-\	.	8g/L	.	.
.	.	8b-/J	.	.
4BB-/	.	4dd\	.	.
4g 4d 4B-\	.	4dd\	.	.
=237	=237	=237	=237	=237
4C/	.	8dd\L	.	.
.	.	8cc\	.	.
4g 4e- 4c\	.	8ee-\	.	.
.	.	8dd\J	.	.
4EE-/	.	4.cc\	.	.
4g 4e- 4c\	.	.	.	.
.	.	8b-\	.	.
=238	=238	=238	=238	=238
4DD/	.	8.a/L	.	.
.	.	16d/Jk	.	.
4f#X 4d 4A\	.	8a/L	.	.
.	.	8b-/J	.	.
4FF#X/	.	4cc\	.	.
4f# 4d 4A\	.	4dd\	.	.
=239	=239	=239	=239	=239
4GG/	.	8.b-/L	.	.
.	.	16a/Jk	.	.
4g 4d 4B-\	.	8g/L	.	.
.	.	8b-/J	.	.
4DD/	.	4a/	.	.
4f#X 4d 4A\	.	4d/	.	.
=240	=240	=240	=240	=240
4GG/	.	8.g/L	.	.
.	.	16d/Jk	.	.
4g 4d 4B-\	.	8g/L	.	.
.	.	8b-/J	.	.
4BB-/	.	4dd\	.	.
4g 4d 4B-\	.	4dd\	.	.
!!LO:LB:g=original
=241	=241	=241	=241	=241
4C/	.	8dd\L	.	<
.	.	8cc\	.	.
4g 4e- 4c\	.	8ee-\	.	.
.	.	8dd\J	.	.
4AA/	.	4.ff\	.	[
4f 4c 4A\	.	.	.	.
.	.	8ee-\	.	.
=242	=242	=242	=242	=242
4BB-/	.	8.dd\L	.	.
.	.	16cc\Jk	.	.
4f 4d 4B-\	.	8b-\L	.	.
.	.	8cc\J	.	.
4DD/	.	4dd\	.	.
4f#X 4d 4A\	.	4dd\	.	.
=243	=243	=243	=243	=243
4GG/	.	2.g/	.	>
4d\	.	.	.	.
4g 4B-\	.	.	.	.
4d\	.	4r	.	]]
=244	=244	=244	=244	=244
4DD/	.	8.f#X/L	.	.
.	.	16g/Jk	.	.
4c 4A\	.	8a/L	.	.
.	.	8b-/J	.	.
4DD#X/	.	4cc\	.	.
4c 4A\	.	4cc\	.	.
=245	=245	=245	=245	=245
.	.	(8qdd/	.	.
4EEn/	.	8.cc\L)	.	.
.	.	16bn\Jk	.	.
4c 4A\	.	8cc\L	.	.
.	.	8dd\J	.	.
4FF/	.	4.cc\	.	.
4c 4A\	.	.	.	.
.	.	8b-X\	.	.
!!LO:LB:g=original
=246	=246	=246	=246	=246
4FF#X/	.	8.a/L	.	.
.	.	16b-/Jk	.	.
4c 4A\	.	8cc\L	.	.
.	.	8dd\J	.	.
4GG/	.	4ee-\	.	.
4c 4A\	.	4ee-\	.	.
=247	=247	=247	=247	=247
.	.	(8qff/	.	.
4GG#X/	.	8.ee-\L)	.	.
.	.	16dd\Jk	.	.
4c 4A\	.	8ee-\L	.	.
.	.	8ff\J	.	.
4AA/	.	4.ee-\	.	.
4d 4c\	.	.	.	.
.	.	8dd\	.	.
=248	=248	=248	=248	=248
4BB-/	.	8dd\L	.	.
.	.	8cc\	.	.
4g 4d 4B-\	.	8b-\	.	.
.	.	8cc\J	.	.
4GG/	.	4dd\	.	.
4g 4d 4B-\	.	4g/	.	.
=249	=249	=249	=249	=249
4C/	.	4g/	.	<
4g 4e- 4c\	.	8cc\L	.	.
.	.	(8ee-\J	.	[
.	.	8qgg/)	.	.
4AA/	.	4.gg\	.	.
4f 4c 4A\	.	.	.	.
!	!	!LO:TX:a:t=P:problem=slur with a dot	!	!
.	.	(16ff\LL	.	.
.	.	16ee-\JJ)	.	.
=250	=250	=250	=250	=250
!	!	!LO:TX:b:i:t=rit.	!	!
4BB-/	.	8dd\L	.	.
.	.	8dd\J	.	.
.	.	(8qff/	.	.
4f 4d 4B-\	.	8ee-\L)	.	>
.	.	8dd\J	.	.
4DD/	.	8dd\L	.	.
.	.	8dd\J	.	.
.	.	(8qff/	.	.
4f#X 4d 4A\	.	8ee-\L)	.	.
.	.	8dd\J	.	]]
!!LO:LB:g=original
=251||	=251||	=251||	=251||	=251||
*M3/4	*	*M3/4	*	*
!LO:TX:t=P:problem=mixed beam	!	!LO:TX:a:t=Moderato. (Pastuszek.)	!	!
8GG/L	.	8g/L	.	p
8d\	.	(8b-/J	.	.
.	.	8qdd/)	.	.
8g 8B-\	.	4.dd\	.	.
8d\	.	.	.	.
8g 8B-\	.	.	.	.
8d\J	.	8cc#X\	.	.
=252	=252	=252	=252	=252
!LO:TX:t=P:problem=mixed beam	!	!	!	!
.	.	(8qee-/	.	.
8GG/L	.	8dd\L)	.	.
8d\	.	8cc#X\J	.	.
8g 8B-\	.	4dd\	.	.
8d\	.	.	.	.
8g 8B-\	.	8b-/L	.	.
8d\J	.	8g/J	.	.
=253	=253	=253	=253	=253
!LO:TX:t=P:problem=mixed beam	!	!	!	!
8DD/L	.	8a\L	.	.
8d\	.	8cc\J	.	.
8f#X 8c\	.	4b-\	.	.
8d\	.	.	.	.
8f# 8c\	.	4a/	.	.
8d\J	.	.	.	.
=254	=254	=254	=254	=254
!LO:TX:t=P:problem=mixed beam	!	!	!	!
8GG/L	.	2g/	.	.
8d\	.	.	.	.
8g 8B-\	.	.	.	.
8d\	.	.	.	.
8g 8B-\	.	4d/	.	.
8d\J	.	.	.	.
=255	=255	=255	=255	=255
8BB-\L	.	8b-\L	.	mf
8f\	.	(8dd\J	.	.
.	.	8qff/)	.	.
8d 8B-\	.	4.ff\	.	.
8f\	.	.	.	.
8d 8B-\	.	.	.	.
8f\J	.	8een\	.	.
=256	=256	=256	=256	=256
.	.	(8qgg/	.	.
8BB-\L	.	8ff\L)	.	.
8f\	.	8een\J	.	.
8d 8B-\	.	4ff\	.	.
8f\	.	.	.	.
8d 8B-\	.	8dd\L	.	.
8f\J	.	8b-\J	.	.
!!LO:LB:g=original
=257	=257	=257	=257	=257
!LO:TX:t=P:problem=mixed beam	!	!	!	!
8FF/L	.	8cc\L	.	.
8f\	.	8ee-\J	.	.
8e- 8A\	.	4dd\	.	.
8f\	.	.	.	.
8e- 8A\	.	4cc\	.	.
8f\J	.	.	.	.
=258	=258	=258	=258	=258
8BB-\L	.	2dd\	.	.
8f\	.	.	.	.
8d 8B-\	.	.	.	.
8f\	.	.	.	.
8d 8B-\	.	4b-\	.	.
8f\J	.	.	.	.
=259	=259	=259	=259	=259
!LO:TX:t=P:problem=mixed beam	!	!	!	!
8GG/L	.	8g/L	.	p
8d\	.	(8b-/J	.	.
.	.	8qdd/)	.	.
8g 8B-\	.	4.dd\	.	.
8d\	.	.	.	.
8g 8B-\	.	.	.	.
8d\J	.	8cc#X\	.	.
=260	=260	=260	=260	=260
!LO:TX:t=P:problem=mixed beam	!	!	!	!
.	.	(8qee-/	.	.
8GG/L	.	8dd\L)	.	.
8d\	.	8cc#X\J	.	.
8g 8B-\	.	4dd\	.	.
8d\	.	.	.	.
8g 8B-\	.	8b-/L	.	.
8d\J	.	8g/J	.	.
=261	=261	=261	=261	=261
!LO:TX:t=P:problem=mixed beam	!	!	!	!
8DD/L	.	8a/L	.	.
8d\	.	8f#X/J	.	.
8f#X 8c\	.	4d/	.	.
8d\	.	.	.	.
8f# 8c\	.	4f#/	.	.
8d\J	.	.	.	.
=262	=262	=262	=262	=262
!LO:TX:t=P:problem=mixed beam	!	!	!	!
8GG/L	.	2.g/	.	.
8d\	.	.	.	.
8g 8B-\	.	.	.	.
8d\	.	.	.	.
8g 8B-\	.	.	.	.
8d\J	.	.	.	.
!!LO:LB:g=original
=263	=263	=263	=263	=263
!LO:TX:t=P:problem=mixed beam	!	!	!	!
8DD/L	.	8f#X/L	.	.
8d\	.	8g/J	.	.
8f#X 8c\	.	4.a/	.	.
8d\	.	.	.	.
8f# 8c\	.	.	.	.
8d\J	.	8f#/	.	.
=264	=264	=264	=264	=264
!LO:TX:t=P:problem=mixed beam	!	!	!	!
8GG/L	.	8g/L	.	.
8d\	.	8a/J	.	.
8g 8B-\	.	4b-\	.	.
8d\	.	.	.	.
8g 8B-\	.	4g/	.	.
8d\J	.	.	.	.
=265	=265	=265	=265	=265
!LO:TX:t=P:problem=mixed beam	!	!	!	!
8FF/L	.	8a/L	.	.
8f\	.	8b-/J	.	.
8e- 8A\	.	4cc\	.	.
8f\	.	.	.	.
8e- 8A\	.	8b-/L	.	.
8f\J	.	8a/J	.	.
=266	=266	=266	=266	=266
8BB-\L	.	2.dd\	.	.
8f\	.	.	.	.
8d 8B-\	.	.	.	.
8f\	.	.	.	.
8d 8B-\	.	.	.	.
8f\J	.	.	.	.
=267	=267	=267	=267	=267
!LO:TX:t=P:problem=mixed beam	!	!	!	!
8DD/L	.	8dd\L	.	f
8d\	.	8dd\J	.	.
8f#X 8c\	.	4.cc\	.	.
8d\	.	.	.	.
8f# 8c\	.	.	.	.
8d\J	.	8a/	.	.
=268	=268	=268	=268	=268
!LO:TX:t=P:problem=mixed beam	!	!	!	!
8GG/L	.	8b-\L	.	.
!	!	!LO:TUP:a:problem:klamra łukowa	!	!
8d\	.	24b-\L	.	.
.	.	24cc\	.	.
.	.	24b-\JJ	.	.
8g 8B-\	.	4a/	.	.
8d\	.	.	.	.
8g 8B-\	.	4g/	.	.
8d\J	.	.	.	.
!!LO:PB:g=original
=269	=269	=269	=269	=269
!LO:TX:t=P:problem=mixed beam	!	!	!	!
8DD/L	.	8a/L	.	.
8d\	.	8f#X/J	.	.
8f#X 8c\	.	4d/	.	.
8d\	.	.	.	.
8f# 8c\	.	4f#/	.	.
8d\J	.	.	.	.
=270	=270	=270	=270	=270
!LO:TX:t=P:problem=mixed beam	!	!	!	!
8GG/L	.	2.g/	.	.
8d\	.	.	.	.
8g 8B-\	.	.	.	.
8d\J	.	.	.	.
4g 4B-\	.	.	.	.
=271	=271	=271	=271	=271
.	.	(8qee-/	.	f
8.d\L	.	8.dd\L)	.	.
16c#X\Jk	.	16cc#X\Jk	.	.
2d\	.	2dd\	.	.
=272	=272	=272	=272	=272
.	.	(8qee-/	.	.
8.d\L	.	8.dd\L)	.	.
16c#X\Jk	.	16cc#X\Jk	.	.
2d\	.	2dd\	.	.
=273	=273	=273	=273	=273
4EE-/	.	8ddL 8g 8e-/	.	.
.	.	8cc/J	.	.
4B-\	.	4b-\	.	.
4g 4e-\	.	4cc\	.	.
=274	=274	=274	=274	=274
2d 2A 2DD\	.	2dd 2a 2f#X/	.	.
4r	.	4r	.	.
=275||	=275||	=275||	=275||	=275||
*k[f#]	*	*k[f#]	*	*
*M3/4	*	*M3/4	*	*
!	!	!LO:TX:a:t=(Mazur ze Strasznego dworu.)	!	!
4GG/	.	8.ddL 8.b\	.	mf
.	.	16ddJk 16b\	.	.
4d\	.	4cc#X 4a#X\	.	.
4g\	.	4ee 4ccn\	.	.
=276	=276	=276	=276	=276
4GG/	.	2dd 2b\	.	.
4d\	.	.	.	.
4g 4B\	.	4b 4g/	.	.
!!LO:LB:g=original
=277	=277	=277	=277	=277
*	*	*^	*	*
4GG/	.	8dd/L	2f#\	.	.
.	.	8cc/J	.	.	.
4d\	.	8a/	.	.	.
.	.	8r	.	.	.
4f# 4c\	.	4a/	4ryy	.	.
*	*	*v	*v	*	*
=278	=278	=278	=278	=278
4GG/	.	4b 4d/	.	.
4d\	.	4a 4c/	.	.
4g 4B\	.	4g 4B/	.	.
=279	=279	=279	=279	=279
4GG/	.	8.dL 8.c/	.	.
.	.	16eJk 16c/	.	.
4d\	.	4f# 4c/	.	.
4f# 4c\	.	4d 4c/	.	.
=280	=280	=280	=280	=280
4GG/	.	2g 2B/	.	.
4d\	.	.	.	.
4g 4B\	.	4b 4g/	.	.
=281	=281	=281	=281	=281
*	*	*^	*	*
4GG/	.	8dd/L	2f#\	.	.
.	.	8cc/J	.	.	.
4d\	.	4a/	.	.	.
4f# 4c\	.	4a/	4c\	.	.
*	*	*v	*v	*	*
=282	=282	=282	=282	=282
4GG/	.	4b 4d/	.	.
4d\	.	4a 4c/	.	.
4g 4B\	.	4g 4B/	.	.
=283	=283	=283	=283	=283
4GG/	.	8.dL 8.c/	.	.
.	.	16eJk 16c/	.	.
4d\	.	4f# 4c/	.	.
4f# 4c\	.	4d 4c/	.	.
=284	=284	=284	=284	=284
4GG/	.	2g 2B/	.	.
4d\	.	.	.	.
4g 4B\	.	4b 4g/	.	.
!!LO:LB:g=original
=285	=285	=285	=285	=285
*	*	*^	*	*
4GG/	.	8dd/L	2f#\	.	.
.	.	8cc/J	.	.	.
4d\	.	4a/	.	.	.
4f# 4c\	.	4a/	4ryy	.	.
*	*	*v	*v	*	*
=286	=286	=286	=286	=286
4GG/	.	2g 2B/	.	.
4d\	.	.	.	.
4g 4B\	.	4g/	.	.
=287||	=287||	=287||	=287||	=287||
*k[]	*	*k[]	*	*
*M2/4	*	*M2/4	*	*
!	!	!LO:TX:a:t=Risoluto.	!	!
4C/	.	4g/	.	f
4g 4e 4c\	.	8.e/L	.	.
.	.	16g/Jk	.	.
=288	=288	=288	=288	=288
4C/	.	4.cc 4.g 4.e/	.	.
4g 4e 4c\	.	.	.	.
.	.	8g/	.	.
=289	=289	=289	=289	=289
4C/	.	8e/L	.	.
.	.	8g/	.	.
4g 4e 4c\	.	8cc/	.	.
.	.	8dd/J	.	.
=290	=290	=290	=290	=290
4C/	.	4ee 4cc 4g\	.	.
4g 4e 4c\	.	4cc 4g 4e/	.	.
=291	=291	=291	=291	=291
4FF/	.	8r	.	.
.	.	8aL 8f/	.	.
4f 4d 4A\	.	8dd 8a 8f/	.	.
.	.	8ccJ 8a 8f/	.	.
=292	=292	=292	=292	=292
4GG/	.	4b 4g 4f 4G/	.	.
4g 4d 4B\	.	4b 4g 4f/	.	.
=293	=293	=293	=293	=293
4GG/	.	8r	.	.
.	.	8g/L	.	.
4g 4d 4B\	.	8a/	.	.
.	.	8b/J	.	.
=294	=294	=294	=294	=294
4C/	.	4cc 4g 4e/	.	.
4g 4e 4c\	.	4c/	.	.
!!LO:LB:g=original
=295	=295	=295	=295	=295
4C/	.	4g/	.	.
4g 4e 4c\	.	8.e/L	.	.
.	.	16g/Jk	.	.
=296	=296	=296	=296	=296
4C/	.	4.cc 4.g 4.e/	.	.
4g 4e 4c\	.	.	.	.
.	.	8g/	.	.
=297	=297	=297	=297	=297
4C/	.	8e/L	.	.
.	.	8g/	.	.
4g 4e 4c\	.	8cc/	.	.
.	.	8dd/J	.	.
=298	=298	=298	=298	=298
4C/	.	4ee 4cc 4g\	.	.
4g 4e 4c\	.	4cc 4g 4e/	.	.
=299	=299	=299	=299	=299
4FF/	.	4a 4f/	.	.
4f 4d 4A\	.	8.ffL 8.a 8.f\	.	.
.	.	16ddJk 16a 16f\	.	.
=300	=300	=300	=300	=300
4GG/	.	4cc 4g 4e/	.	.
4g 4e 4c\	.	4g 4e/	.	.
=301	=301	=301	=301	=301
4GG/	.	8r	.	.
.	.	8g/L	.	.
4g 4d 4B\	.	8a 8f#X/	.	.
.	.	8bJ 8fn/	.	.
=302	=302	=302	=302	=302
4C/	.	4cc 4e/	.	.
4g 4e 4c\	.	4cc 4g 4e/	.	.
=303||	=303||	=303||	=303||	=303||
!	!	!LO:TX:a:t=(Nie tak in illo tempore bywało.)	!	!
4DD/	.	4dd 4a 4f#X/	.	.
4f#X 4d 4A\	.	8.aL 8.f#/	.	.
.	.	16ccJk 16a/	.	.
=304	=304	=304	=304	=304
4GG/	.	4b 4g/	.	.
4g 4d 4B\	.	4g 4d 4B/	.	.
=305	=305	=305	=305	=305
4DD/	.	8aL 8d/	.	.
.	.	8b/J	.	.
4f#X 4d 4A\	.	8cc\L	.	.
.	.	8a\J	.	.
!!LO:LB:g=original
=306	=306	=306	=306	=306
4GG/	.	4dd 4b 4g\	.	.
4g 4d 4B\	.	4b 4g 4d/	.	.
=307	=307	=307	=307	=307
4DD/	.	4dd 4a 4f#X/	.	.
4f#X 4d 4A\	.	8.aL 8.f#/	.	.
.	.	16ccJk 16a/	.	.
=308	=308	=308	=308	=308
4GG/	.	4b 4g 4d/	.	.
4g 4d 4B\	.	4g 4d 4B/	.	.
=309	=309	=309	=309	=309
4DD/	.	8aL 8d/	.	.
.	.	8b/J	.	.
4f#X 4d 4A\	.	8cc\L	.	.
.	.	8a\J	.	.
=310	=310	=310	=310	=310
8GG/	.	8gL 8d 8B/	.	.
8r	.	16g/L	.	.
.	.	16g/JJ	.	.
4r	.	8g/L	.	.
.	.	8g/J	.	.
=311||	=311||	=311||	=311||	=311||
*M4/4	*	*M4/4	*	*
*met(c)	*	*met(c)	*	*
4C/	.	4cc 4g 4e/	.	mf
4g 4e 4c\	.	8g/L	.	.
.	.	8g/J	.	.
4C/	.	4cc\	.	.
4g 4e 4c\	.	4g/	.	.
=312	=312	=312	=312	=312
4C/	.	8cc\L	.	.
.	.	8cc\J	.	.
4g 4e 4c\	.	8b\L	.	.
.	.	8cc\J	.	.
4GG/	.	4dd 4g 4f/	.	.
4g 4d 4B\	.	4g 4f/	.	.
=313	=313	=313	=313	=313
4GG/	.	4dd 4g 4f/	.	.
4g 4d 4B\	.	8g/L	.	.
.	.	8b/J	.	.
4GG/	.	4dd\	.	.
4g 4d 4B\	.	4g/	.	.
!!LO:LB:g=original
=314	=314	=314	=314	=314
4BB/	.	8dd\L	.	.
.	.	8dd\	.	.
4g 4d 4B\	.	8cc\	.	.
.	.	8dd\J	.	.
4C/	.	4ee\	.	.
4g 4e 4c\	.	4cc\	.	.
=315	=315	=315	=315	=315
4C/	.	4g/	.	.
4g 4e 4c\	.	8cc\L	.	.
.	.	8dd\J	.	.
4C/	.	4.ee\	.	.
4g 4e 4c\	.	.	.	.
.	.	8dd\	.	.
=316	=316	=316	=316	=316
4EE/	.	8cc\L	.	.
.	.	8cc\	.	.
4g 4e 4c\	.	8b\	.	.
.	.	8cc\J	.	.
4FF/	.	4a 4f/	.	.
4f 4d 4A\	.	8dd 8a 8f/	.	.
.	.	8r	.	.
=317	=317	=317	=317	=317
4GG/	.	4dd 4b 4g\	.	.
4g 4d 4B\	.	8g/L	.	.
.	.	8g/J	.	.
4C/	.	4cc 4g 4e/	.	.
4g 4e 4c\	.	4cc\	.	.
=318	=318	=318	=318	=318
4GG/	.	8bL 8g 8f/	.	.
.	.	8b/J	.	.
4g 4d 4B\	.	8a/L	.	.
.	.	8b/J	.	.
4GG/	.	4dd 4g 4f/	.	.
8C/	.	8cc 8g 8e/	.	.
8r	.	8r	.	.
!!LO:PB:g=original
=319||	=319||	=319||	=319||	=319||
*k[f#]	*	*k[f#]	*	*
!LO:TX:t=P:problem=mixed beam	!	!LO:TX:a:t=Adagio maestoso. (Chopin. Marsz żałobny.)	!	!
8GG/L	.	2b\	.	.
8d\	.	.	.	.
8g 8B\	.	.	.	.
8d\J	.	.	.	.
!LO:TX:t=P:problem=mixed beam	!	!	!	!
8GG/L	.	8cc/L	.	.
8d\	.	8b/	.	.
8g 8B\	.	8a/	.	.
8d\J	.	8g/J	.	.
=320	=320	=320	=320	=320
8AA\L	.	4f#/	.	.
8d\	.	.	.	.
8f# 8c\	.	4ee\	.	.
8d\J	.	.	.	.
8AA\L	.	2dd\	.	.
8d\	.	.	.	.
8f# 8c\	.	.	.	.
8d\J	.	.	.	.
=321	=321	=321	=321	=321
!LO:TX:t=P:problem=mixed beam	!	!	!	!
8DD/L	.	2cc\	.	.
8d\	.	.	.	.
8f# 8c\	.	.	.	.
8d\J	.	.	.	.
!LO:TX:t=P:problem=mixed beam	!	!	!	!
8FF#/L	.	8dd\L	.	.
8d\	.	8cc\	.	.
8f# 8c\	.	8b\	.	.
8d\J	.	8a\J	.	.
=322	=322	=322	=322	=322
!LO:TX:t=P:problem=mixed beam	!	!	!	!
8GG/L	.	4g/	.	.
8d\	.	.	.	.
8g 8B\	.	4gg\	.	.
8d\J	.	.	.	.
!LO:TX:t=P:problem=mixed beam	!	!	!	!
8GG/L	.	2dd\	.	.
8d\	.	.	.	.
8g 8B\	.	.	.	.
8d\J	.	.	.	.
!!LO:LB:g=original
=323	=323	=323	=323	=323
!LO:TX:t=P:problem=mixed beam	!	!	!	!
8GG/L	.	2b\	.	.
8d\	.	.	.	.
8g 8B\	.	.	.	.
8d\J	.	.	.	.
!LO:TX:t=P:problem=mixed beam	!	!	!	!
8EE/L	.	8cc/L	.	.
8e\	.	8b/	.	.
8d 8G#X\	.	8a/	.	.
8e\J	.	8g#X/J	.	.
=324	=324	=324	=324	=324
8AA\L	.	8a/L	.	.
8e\	.	8g#X/	.	.
8c 8A\	.	8a/	.	.
8e\J	.	8b/J	.	.
8C\L	.	8cc/L	.	.
8e\	.	8e/	.	.
8c 8A\	.	8b/	.	.
8e\J	.	8a/J	.	.
=325	=325	=325	=325	=325
!LO:TX:t=P:problem=mixed beam	!	!	!	!
8CC#X/L	.	4g/	.	.
8A\	.	.	.	.
8g 8c#X\	.	8f#/L	.	.
8A\J	.	8g/J	.	.
!LO:TX:t=P:problem=mixed beam	!	!	!	!
8DD/L	.	8ee\L	.	.
8d\	.	8dd\	.	.
8f# 8cn\	.	8cc\	.	.
8d\J	.	8f#\J	.	.
=326	=326	=326	=326	=326
!LO:TX:t=P:problem=mixed beam	!	!	!	!
8DD/L	.	2a/	.	.
8d\	.	.	.	.
8f# 8c\	.	.	.	.
8d\J	.	.	.	.
!LO:TX:t=P:problem=mixed beam	!	!	!	!
8GG/L	.	4g/	.	.
8d\	.	.	.	.
8g 8B\	.	4r	.	.
8d\J	.	.	.	.
=327||	=327||	=327||	=327||	=327||
!LO:TX:t=P:problem=mixed beam	!	!	!	!
8DD/L	.	2ff# 2dd 2a\	.	mf
8A\	.	.	.	.
8f# 8d\	.	.	.	.
8A\J	.	.	.	.
!LO:TX:t=P:problem=mixed beam	!	!	!	!
8DD/L	.	8gg\L	.	.
8A\	.	8ff#\	.	.
8f# 8d\	.	8ee\	.	.
8A\J	.	8dd\J	.	.
!!LO:LB:g=original
=328	=328	=328	=328	=328
!LO:TX:t=P:problem=mixed beam	!	!LO:TX:t=△:note=3	!	!
8EE/L	.	(>4cc#X 4a 4g/	.	.
8A\	.	.	.	.
.	.	8qbb/)	.	.
8g 8c#X\	.	4bb\	.	.
8A\J	.	.	.	.
8AA\L	.	2aa 2gg 2cc#X\	.	.
8A\	.	.	.	.
8g 8c#\	.	.	.	.
8A\J	.	.	.	.
=329	=329	=329	=329	=329
!LO:TX:t=P:problem=mixed beam	!	!	!	!
8EE/L	.	2gg 2cc#X 2a\	.	.
8A\	.	.	.	.
8g 8c#X\	.	.	.	.
8A\J	.	.	.	.
8AA\L	.	8aa\L	.	.
8A\	.	8gg\	.	.
8g 8c#\	.	8ff#\	.	.
8A\J	.	8ee\J	.	.
=330	=330	=330	=330	=330
8BB\L	.	(4dd#X\	.	.
8B\	.	.	.	.
.	.	8qccc/)	.	.
8d#X 8A\	.	4ccc\	.	.
8B\J	.	.	.	.
8BB\L	.	2bb\	.	.
8B\	.	.	.	.
8d# 8A\	.	.	.	.
8B\J	.	.	.	.
=331	=331	=331	=331	=331
!LO:TX:t=P:problem=mixed beam	!	!	!	!
8GG/L	.	2bb\	.	.
8B\	.	.	.	.
8g 8e\	.	.	.	.
8B\J	.	.	.	.
!LO:TX:t=P:problem=mixed beam	!	!	!	!
8GG/L	.	8ccc\L	.	.
8B\	.	8bb\	.	.
8g 8e\	.	8aa\	.	.
8B\J	.	8gg\J	.	.
=332	=332	=332	=332	=332
8AA\L	.	4gg\	.	.
8e\	.	.	.	.
8c 8A\	.	4ff#\	.	.
8e\J	.	.	.	.
8BB\L	.	8r	.	.
8B\	.	8ff#\	.	.
.	.	(8qaa/	.	.
8g 8e\	.	8.gg\L)	.	.
8B\J	.	.	.	.
.	.	16ff#\Jk	.	.
!!LO:LB:g=original
=333	=333	=333	=333	=333
8C\L	.	4ff#\	.	.
8e\	.	.	.	.
8c 8A\	.	4ee\	.	.
8e\J	.	.	.	.
4AA/	.	8r	.	.
.	.	8ff#\	.	.
.	.	(8qaa/	.	.
4AA#X/	.	8.gg\L)	.	.
.	.	16ff#\Jk	.	.
=334	=334	=334	=334	=334
8BB\L	.	4ff#\	.	.
8f#\J	.	.	.	.
4B\	.	4bb\	.	.
4AA/	.	4ccc 4ff# 4dd\	.	.
4DD/	.	4dd 4cc 4f#/	.	.
=335	=335	=335	=335	=335
!LO:TX:t=P:problem=mixed beam	!	!	!	!
8GG/L	.	2b\	.	.
8d\	.	.	.	.
8g 8B\	.	.	.	.
8d\J	.	.	.	.
!LO:TX:t=P:problem=mixed beam	!	!	!	!
8GG/L	.	8cc/L	.	.
8d\	.	8b/	.	.
8g 8B\	.	8a/	.	.
8d\J	.	8g/J	.	.
=336	=336	=336	=336	=336
8AA\L	.	(>4f#/	.	.
8d\	.	.	.	.
.	.	8qee/)	.	.
8f# 8c\	.	4ee\	.	.
8d\J	.	.	.	.
8AA\L	.	2dd\	.	.
8d\	.	.	.	.
8f# 8c\	.	.	.	.
8d\J	.	.	.	.
=337	=337	=337	=337	=337
!LO:TX:t=P:problem=mixed beam	!	!	!	!
8DD/L	.	2cc\	.	.
8d\	.	.	.	.
8f# 8c\	.	.	.	.
8d\J	.	.	.	.
!LO:TX:t=P:problem=mixed beam	!	!	!	!
8FF#/L	.	8dd\L	.	.
8d\	.	8cc\	.	.
8f# 8c\	.	8b\	.	.
8d\J	.	8a\J	.	.
!!LO:LB:g=original
=338	=338	=338	=338	=338
!LO:TX:t=P:problem=mixed beam	!	!	!	!
8GG/L	.	4g/	.	.
8d\	.	.	.	.
8g 8B\	.	4gg\	.	.
8d\J	.	.	.	.
!LO:TX:t=P:problem=mixed beam	!	!	!	!
8GG/L	.	2dd\	.	.
8d\	.	.	.	.
8g 8B\	.	.	.	.
8d\J	.	.	.	.
=339	=339	=339	=339	=339
!LO:TX:t=P:problem=mixed beam	!	!	!	!
8GG/L	.	2b\	.	.
8d\	.	.	.	.
8g 8B\	.	.	.	.
8d\J	.	.	.	.
!LO:TX:t=P:problem=mixed beam	!	!	!	!
8EE/L	.	8cc/L	.	.
8e\	.	8b/	.	.
8d 8G#X\	.	8a/	.	.
8e\J	.	8g#X/J	.	.
=340	=340	=340	=340	=340
8AA\L	.	8a/L	.	.
8e\	.	8g#X/	.	.
8c 8A\	.	8a/	.	.
8e\J	.	8b/J	.	.
8C\L	.	8cc/L	.	.
8e\	.	(8e/	.	.
.	.	8qb/)	.	.
8c 8A\	.	8b/	.	.
8e\J	.	8a/J	.	.
=341	=341	=341	=341	=341
!LO:TX:t=P:problem=mixed beam	!	!	!	!
8CC#X/L	.	4g/	.	.
8c#\	.	.	.	.
8g 8e\	.	8f#/L	.	.
8c#\J	.	(8g/J	.	.
!LO:TX:t=P:problem=mixed beam	!	!	!	!
.	.	8qee/)	.	.
8DD/L	.	8ee\L	.	.
8c\	.	8dd\	.	.
8f# 8d\	.	8cc\	.	.
8c\J	.	(<8f#\J	.	.
.	.	8qa/)	.	.
=342	=342	=342	=342	=342
!LO:TX:t=P:problem=mixed beam	!	!	!	!
8DD/L	.	2a 2c/	.	.
8d\	.	.	.	.
8f# 8c\	.	.	.	.
8d\J	.	.	.	.
4GG/	.	4g 4B/	.	.
4r	.	8g/L	.	.
.	.	8a/J	.	.
!!LO:LB:g=original
=343||	=343||	=343||	=343||	=343||
*M3/4	*	*M3/4	*	*
!	!	!LO:TX:a:t=Maestoso. (Boże Ojcze Twoje dzieci.)	!	!
4GG/	.	4b 4g/	.	.
4g 4d 4B\	.	4b 4g/	.	.
4r	.	8.ccL 8.a/	.	.
.	.	16bJk 16g/	.	.
=344	=344	=344	=344	=344
4DD/	.	4b 4g/	.	.
4f# 4c;<\	.	4a 4f#;/	.	.
4r	.	8aL 8f#/	.	.
.	.	8bJ 8g/	.	.
=345	=345	=345	=345	=345
4FF#/	.	4cc 4a\	.	.
4f# 4d 4A\	.	4cc 4a\	.	.
4DD/	.	8.ddL 8.f#/	.	.
.	.	16ccJk 16a/	.	.
=346	=346	=346	=346	=346
4DD/	.	4cc 4a\	.	.
4GG;/	.	4b 4g;/	.	.
4r	.	8bL 8g/	.	.
.	.	8ccJ 8a/	.	.
=347	=347	=347	=347	=347
4GG/	.	4dd 4b\	.	.
4g 4d 4B\	.	4dd 4b\	.	.
4r	.	8.eeL 8.cc\	.	.
.	.	16ddJk 16b\	.	.
=348	=348	=348	=348	=348
4e 4B 4EE\	.	4dd 4b\	.	.
4e 4A 4AA\	.	4cc 4a\	.	.
4DD/	.	8ccL 8a/	.	.
.	.	8aJ 8d/	.	.
=349	=349	=349	=349	=349
4GG/	.	8gL 8d 8B/	.	.
.	.	8bJ 8g/	.	.
4g 4d 4B;<\	.	4dd 4b 4g;\	.	.
4DD/	.	8cc/L	.	.
.	.	8f#/J	.	.
=350	=350	=350	=350	=350
4DD/	.	4a 4c/	.	.
4GG;/	.	4g 4B;/	.	.
4r	.	8bL 8g/	.	.
.	.	8ccJ 8a/	.	.
!!LO:LB:g=original
=351	=351	=351	=351	=351
4GG/	.	4dd 4b\	.	.
4g 4d 4B\	.	4dd 4b\	.	.
4r	.	8.eeL 8.cc\	.	.
.	.	16ddJk 16b\	.	.
=352	=352	=352	=352	=352
4GG#X/	.	4dd 4b\	.	.
4AA/	.	4cc 4a\	.	.
4DD/	.	8ccL 8a 8d/	.	.
!	!	!LO:TX:t=△:note=1	!	!
.	.	8aJ 8d/	.	.
=353	=353	=353	=353	=353
4GG/	.	8gL 8d 8B/	.	.
.	.	8bJ 8g 8d/	.	.
4g 4d 4B\	.	4dd 4b 4g\	.	.
4DD/	.	8ccL 8a 8d/	.	.
.	.	8f#/J	.	.
=354||	=354||	=354||	=354||	=354||
*M4/4	*	*M4/4	*	*
*met(c)	*	*met(c)	*	*
!	!	!LO:TX:a:t=Marciale. (Marsz Mierosławskiego.)	!	!
4GG/	.	4d/	.	.
4g 4d 4B\	.	8.g/L	.	.
.	.	16b/Jk	.	.
4g 4d 4B\	.	4dd 4b 4g\	.	.
4g 4d 4B\	.	4dd 4b 4g\	.	.
=355	=355	=355	=355	=355
4GG/	.	4ee 4b 4g\	.	.
4g 4d 4B\	.	8.dd\L	.	.
.	.	16b\Jk	.	.
4g 4d 4B\	.	2g/	.	.
4g 4d 4B\	.	.	.	.
=356	=356	=356	=356	=356
4DD/	.	4b\	.	.
4f# 4d 4A\	.	8.a/L	.	.
.	.	16f#/Jk	.	.
4f# 4c\	.	4d/	.	.
4f# 4d 4A\	.	4d/	.	.
=357	=357	=357	=357	=357
4GG/	.	4ee 4b 4g\	.	.
4g 4d 4B\	.	8.dd\L	.	.
.	.	16cc#X\Jk	.	.
4g 4d 4B\	.	2dd\	.	.
4g 4d 4B\	.	.	.	.
!!LO:PB:g=original
=358	=358	=358	=358	=358
4GG/	.	4d/	.	.
4g 4d 4B\	.	8.g/L	.	.
.	.	16b/Jk	.	.
4g 4d 4B\	.	4dd 4b 4g\	.	.
4g 4d 4B\	.	4dd 4b 4g\	.	.
=359	=359	=359	=359	=359
4GG/	.	4ee 4b 4g\	.	.
4g 4d 4B\	.	8.dd\L	.	.
.	.	16b\Jk	.	.
4g 4d 4B\	.	2g/	.	.
4g 4d 4B\	.	.	.	.
=360	=360	=360	=360	=360
4DD/	.	4a/	.	.
4f# 4d 4A\	.	8.a/L	.	.
.	.	16b/Jk	.	.
4f# 4c\	.	4cc\	.	.
4f# 4d 4A\	.	4f#/	.	.
=361	=361	=361	=361	=361
4GG/	.	4g/	.	.
4g 4d 4B\	.	8.b/L	.	.
.	.	16a/Jk	.	.
4g 4d 4B\	.	4g/	.	.
4g 4d 4B\	.	4r	.	.
=362	=362	=362	=362	=362
4DD/	.	4a/	.	.
4f# 4d 4A\	.	8.a/L	.	.
.	.	16b/Jk	.	.
4f# 4c\	.	4cc\	.	.
4f# 4d 4A\	.	4cc\	.	.
=363	=363	=363	=363	=363
4GG/	.	4g/	.	.
4g 4d 4B\	.	8.g/L	.	.
.	.	16a/Jk	.	.
4g 4d 4B\	.	2b 2g 2d/	.	.
4g 4d 4B\	.	.	.	.
!!LO:LB:g=original
=364	=364	=364	=364	=364
4GG/	.	4dd 4b 4g\	.	.
4g 4d 4B\	.	8b/L	.	.
.	.	8g/J	.	.
4GG/	.	4dd 4b 4g\	.	.
4g 4d 4B\	.	8b/L	.	.
.	.	8g/J	.	.
=365	=365	=365	=365	=365
4DD/	.	4dd\	.	.
4f# 4d 4A\	.	8.ddL 8.a 8.f#/	.	.
.	.	16dd/Jk	.	.
4f# 4d 4A\	.	4dd 4a 4f#/	.	.
4r	.	4r	.	.
=366	=366	=366	=366	=366
4DD/	.	4a/	.	.
4d\	.	8.a/L	.	.
.	.	16b/Jk	.	.
4f# 4c\	.	4cc\	.	.
4d\	.	4cc\	.	.
=367	=367	=367	=367	=367
4GG/	.	4g/	.	.
4d\	.	8.g/L	.	.
.	.	16a/Jk	.	.
4g 4B\	.	2b\	.	.
4d\	.	.	.	.
=368	=368	=368	=368	=368
4GG/	.	4dd 4b 4g\	.	.
4g 4d 4B\	.	8b/L	.	.
.	.	8g/J	.	.
4GG/	.	4dd\	.	.
4g 4d 4B\	.	8b/L	.	.
.	.	8g/J	.	.
=369	=369	=369	=369	=369
4DD/	.	4d/	.	.
4f# 4c\	.	8.e/L	.	.
.	.	16f#/Jk	.	.
4GG/	.	4g/	.	.
4r	.	8r	.	.
.	.	8dd\	.	.
!!LO:LB:g=original
=370!|:	=370!|:	=370!|:	=370!|:	=370!|:
*>K	*	*>K	*	*
*M2/4	*	*M2/4	*	*
!LO:TX:t=P:problem=mixed beam	!	!LO:TX:a:t=(Krakowiak.)	!	!
8GG/L	.	8dd\L	.	.
!	!	!LO:TX:a:t=P:problem=slur with a dot	!	!
8gJ 8d 8B\	.	(16cc#X\L	.	.
.	.	16dd\JJ)	.	.
!LO:TX:t=P:problem=mixed beam	!	!	!	!
8DD/L	.	16gg\LL	.	.
!	!	!LO:TX:a:t=P:problem=slur with a dot	!	!
.	.	(16dd\	.	.
8gJ 8d 8B\	.	16b\)	.	.
.	.	16g\JJ	.	.
=371	=371	=371	=371	=371
8AA\L	.	8a/	.	.
8f# 8d 8A\	.	4cc\	.	.
8f# 8c\	.	.	.	.
!	!	!LO:TX:a:t=P:problem=slur with a dot	!	!
8f#J 8d 8A\	.	(16cc\LL	.	.
.	.	16a\JJ)	.	.
=372	=372	=372	=372	=372
!LO:TX:t=P:problem=mixed beam	!	!	!	!
8DD/L	.	8f#/L	.	.
8f#J 8d 8A\	.	8d/J	.	.
!LO:TX:t=P:problem=mixed beam	!	!	!	!
8DD/L	.	8e/L	.	.
8f#J 8d 8A\	.	8f#/J	.	.
=373	=373	=373	=373	=373
!LO:TX:t=P:problem=mixed beam	!	!LO:TX:b:t=P:problem=slur with a dot	!	!
8GG/L	.	(16g/LL	.	.
.	.	16b/JJ)	.	.
8g 8d 8B\	.	4dd\	.	.
8g 8d 8B\	.	.	.	.
8gJ 8d 8B\	.	8dd\	.	.
=374	=374	=374	=374	=374
!LO:TX:t=P:problem=mixed beam	!	!	!	!
8GG/L	.	8dd\L	.	.
!	!	!LO:TX:a:t=P:problem=slur with a dot	!	!
8gJ 8d 8B\	.	(16cc#X\L	.	.
.	.	16dd\JJ)	.	.
!LO:TX:t=P:problem=mixed beam	!	!	!	!
8DD/L	.	16gg\LL	.	.
!	!	!LO:TX:a:t=P:problem=slur with a dot	!	!
.	.	(16dd\	.	.
8gJ 8d 8B\	.	16b\)	.	.
.	.	16g\JJ	.	.
=375	=375	=375	=375	=375
8AA\L	.	8a/	.	.
8f# 8d 8A\	.	4cc\	.	.
8f# 8c\	.	.	.	.
!	!	!LO:TX:a:t=P:problem=slur with a dot	!	!
8f#J 8d 8A\	.	(16cc\LL	.	.
.	.	16a\JJ)	.	.
=376	=376	=376	=376	=376
!LO:TX:t=P:problem=mixed beam	!	!	!	!
8DD/L	.	8f#/L	.	.
8f#J 8d 8A\	.	8d/J	.	.
!LO:TX:t=P:problem=mixed beam	!	!	!	!
8DD/L	.	8e/L	.	.
8f#J 8d 8A\	.	8f#/J	.	.
!!LO:LB:g=original
=377	=377	=377	=377	=377
!LO:TX:t=1.	!	!	!	!
*>K1	*	*>K1	*	*
!LO:TX:t=P:problem=mixed beam	!	!	!	!
8GG/L	.	8g/L	.	.
8gJ 8d 8B\	.	8g/J	.	.
4r	.	8r	.	.
.	.	8dd\	.	.
=378:|!	=378:|!	=378:|!	=378:|!	=378:|!
!LO:TX:t=2.	!	!	!	!
*>K2	*	*>K2	*	*
!LO:TX:t=P:problem=mixed beam	!	!	!	!
8GG/L	.	8g/L	.	.
8gJ 8d 8B\	.	8g/J	.	.
4r	.	4r	.	.
=379||	=379||	=379||	=379||	=379||
*>L	*	*>L	*	*
!LO:TX:t=P:problem=mixed beam	!	!LO:TX:a:t=(Na Wawel, na Wawel.)	!	!
8GG/L	.	8b\L	.	.
.	.	(8qb/	.	.
8d\	.	8dd\J)	.	.
8g 8B\	.	4g/	.	.
8d\J	.	.	.	.
=380	=380	=380	=380	=380
!LO:TX:t=P:problem=mixed beam	!	!	!	!
8DD/L	.	8f#/	.	.
8d\	.	4a/	.	.
8f# 8c\	.	.	.	.
8d\J	.	8a 8f#/	.	.
=381	=381	=381	=381	=381
!LO:TX:t=P:problem=mixed beam	!	!	!	!
8DD/L	.	8aL 8f#/	.	.
8d\	.	8bJ 8g/	.	.
8f# 8c\	.	4cc 4a\	.	.
8d\J	.	.	.	.
=382	=382	=382	=382	=382
!LO:TX:t=P:problem=mixed beam	!	!	!	!
8GG/L	.	8ee 8cc\	.	.
8d\	.	4dd 4b\	.	.
8g 8B\	.	.	.	.
!	!	!LO:TX:a:t=P:problem=slur with a dot	!	!
8d\J	.	(16dd\LL	.	.
.	.	16cc\JJ)	.	.
=383	=383	=383	=383	=383
!LO:TX:t=P:problem=mixed beam	!	!LO:TX:a:t=P:problem=slur with a dot	!	!
8GG/L	.	(16b\LL	.	.
.	.	16cc\)	.	.
!	!	!LO:TX:a:t=P:problem=slur with a dot	!	!
8d\	.	(16cc#X\	.	.
.	.	16dd\JJ)	.	.
8g 8B\	.	4g/	.	.
8d\J	.	.	.	.
!!LO:LB:g=original
=384	=384	=384	=384	=384
!LO:TX:t=P:problem=mixed beam	!	!LO:TX:b:t=P:problem=slur with a dot	!	!
8DD/L	.	(16f#/LL	.	.
.	.	16a/JJ)	.	.
8d\	.	4a/	.	.
8f# 8c\	.	.	.	.
!	!	!LO:TX:b:t=P:problem=slur with a dot	!	!
8d\J	.	(16a/LL	.	.
.	.	16g/JJ)	.	.
=385	=385	=385	=385	=385
!LO:TX:t=P:problem=mixed beam	!LO:TX:b:t=P:problem=slur with a dot	!	!	!
8DD/L	.	(16f#/LL	.	.
.	.	16a/)	.	.
!	!	!LO:TX:b:t=P:problem=slur with a dot	!	!
8d\	.	(16cc/	.	.
.	.	16ee/JJ)	.	.
8f# 8c\	.	8dd/L	.	.
8d\J	.	8f#/J	.	.
=386	=386	=386	=386	=386
!LO:TX:t=P:problem=mixed beam	!	!LO:TX:b:t=P:problem=slur with a dot	!	!
8GG/L	.	(16a/LL	.	.
.	.	16g/JJ)	.	.
8d\	.	4g/	.	.
8g 8B\	.	.	.	.
8d\J	.	8g/	.	.
=387||	=387||	=387||	=387||	=387||
!LO:TX:t=P:problem=mixed beam	!	!	!	!
8GG/L	.	8g\L	.	.
!	!	!LO:TX:a:t=P:problem=slur with a dot	!	!
8gJ 8d 8B\	.	(16b\L	.	.
.	.	16dd\JJ)	.	.
!LO:TX:t=P:problem=mixed beam	!	!	!	!
8GG/L	.	8gg\L	.	.
8gJ 8d 8B\	.	8ff#\J	.	.
=388	=388	=388	=388	=388
8C\L	.	8ff#\	.	.
8g 8e 8c\	.	4ee\	.	.
8g 8e 8c\	.	.	.	.
8gJ 8e 8c\	.	8ee\	.	.
=389	=389	=389	=389	=389
!	!	!LO:TX:a:t=P:problem=slur with a dot	!	!
8C\L	.	(16ee\LL	.	.
.	.	16ff#\)	.	.
8gJ 8e 8c\	.	16gg\	.	.
.	.	16ff#\JJ	.	.
8C\L	.	16aa\LL	.	.
!	!	!LO:TX:a:t=P:problem=slur with a dot	!	!
.	.	(16gg\	.	.
8gJ 8e 8c\	.	16ff#\)	.	.
.	.	16ee\JJ	.	.
=390	=390	=390	=390	=390
!LO:TX:t=P:problem=mixed beam	!	!LO:TX:a:t=P:problem=slur with a dot	!	!
8GG/L	.	(16ee\LL	.	.
.	.	16dd\JJ)	.	.
8d\	.	4dd\	.	.
8g 8B\	.	.	.	.
8d\J	.	8dd\	.	.
!!LO:LB:g=original
=391	=391	=391	=391	=391
!LO:TX:t=P:problem=mixed beam	!	!	!	!
8GG/L	.	8.gg\L	.	.
8d\	.	.	.	.
.	.	16dd\Jk	.	.
8g 8B\	.	8b/L	.	.
8d\J	.	8g/J	.	.
=392	=392	=392	=392	=392
!LO:TX:t=P:problem=mixed beam	!	!LO:TX:b:t=P:problem=slur with a dot	!	!
8DD/L	.	(16f#/LL	.	.
.	.	16a/JJ)	.	.
8d\	.	4cc\	.	.
8f# 8c\	.	.	.	.
!	!	!LO:TX:b:t=P:problem=slur with a dot	!	!
8d\J	.	(16a/LL	.	.
.	.	16g/JJ)	.	.
=393	=393	=393	=393	=393
!LO:TX:t=P:problem=mixed beam	!	!LO:TX:b:t=P:problem=slur with a dot	!	!
8DD/L	.	(16f#/LL	.	.
.	.	16a/)	.	.
!	!	!LO:TX:b:t=P:problem=slur with a dot	!	!
8d\	.	(16cc/	.	.
.	.	16ee/JJ)	.	.
8f# 8c\	.	8dd/L	.	.
8d\J	.	8f#/J	.	.
=394||	=394||	=394||	=394||	=394||
!	!	!LO:TX:a:t=Allegro.	!	!
4GG/	.	4g/	.	.
4FFn/	.	4dd 4g 4fn 4G/	.	.
=395	=395	=395	=395	=395
4EE/	.	4cc#X 4g 4e 4G/	.	.
4EE-X/	.	4ccn 4g 4e-X 4G/	.	.
=396	=396	=396	=396	=396
4DD/	.	4b 4g 4d 4G/	.	.
4CC#X/	.	4b-X 4g 4e/	.	.
=397	=397	=397	=397	=397
4DD/	.	4bn 4g 4d/	.	.
4DD/	.	4a 4d 4c/	.	.
=398	=398	=398	=398	=398
4GG/	.	4g 4d 4B/	.	.
4FFn/	.	4dd 4g 4fn/	.	.
=399	=399	=399	=399	=399
4EE/	.	4cc#X 4g 4e 4G/	.	.
4EE-X/	.	4ccn 4g 4e-X 4G/	.	.
!!LO:LB:g=original
=400	=400	=400	=400	=400
4DD/	.	4b 4g 4d 4G/	.	.
4CC#X/	.	4b-X 4g 4e/	.	.
=401	=401	=401	=401	=401
4DD/	.	4bn 4g 4d/	.	.
4DD/	.	4a 4d 4c/	.	.
=402	=402	=402	=402	=402
4g 4d 4B 4GG\	.	4g 4d 4B/	.	.
4f# 4d 4A 4DD\	.	4a 4d/	.	.
=403	=403	=403	=403	=403
4g 4d 4B 4GG\	.	4b 4g 4d/	.	.
4f# 4d 4A 4DD\	.	4dd 4a 4f#/	.	.
=404	=404	=404	=404	=404
4g 4d 4B 4GG\	.	4g 4d 4B/	.	.
4f# 4d 4A 4DD\	.	4a 4d/	.	.
=405	=405	=405	=405	=405
4g 4d 4B 4GG\	.	4b 4g 4d/	.	.
4f# 4d 4A 4DD\	.	4dd 4a 4f#/	.	.
=406	=406	=406	=406	=406
2GG/	.	8ggL 8dd 8b\	.	.
.	.	8gg 8dd 8b\	.	.
.	.	8gg 8dd 8b\	.	.
.	.	8ggJ 8dd 8b\	.	.
=407	=407	=407	=407	=407
4BB/	.	8ggL 8dd 8b\	.	.
.	.	8gg 8dd 8b\	.	.
4DD/	.	8gg 8dd 8b\	.	.
.	.	8ggJ 8dd 8b\	.	.
=408	=408	=408	=408	=408
4g 4d 4B 4GG\	.	4gg 4dd 4b\	.	.
4r	.	4r	.	.
=409	=409	=409	=409	=409
4g 4d 4B 4GG\	.	4g 4d 4B/	.	.
4r	.	4r	.	.
=410	=410	=410	=410	=410
2g 2d 2B 2GG;<\	.	2g 2d 2B 2D;/	.	.
==	==	==	==	==
*-	*-	*-	*-	*-
!!!system-decoration: {(*)}
!!!RDF**kern: > = above
!!!RDF**kern: < = below
!!!ENC: Andrzej Kubiczek
!!!END: 2022-08-18
!!!ENC: Andrzej Kubiczek
!!!END: 2022-08-20
!!!YEC: Copyright 2022 Narodowy Instytut Fryderyka Chopina (https://polishscores.org)
!!!YEM: Licence CC BY 4.0 (https://creativecommons.org/licenses/by/4.0)
